!!!!SEGMENT: pl-wn--mus-iii-65-947-cim--021_sowinski-wojciech--swiety-wojciech-meczennik-no-19-chor-pogan.krn
!!!cenid: 18xx:3614
!!!COM: Sowiński, Wojciech
!!!COM-rismid: pe30008543
!!!CDT:
!!!CNT:
!!!GTL: Święty Wojciech męczennik
!!!OTL: No. 19. Chór pogan
!!!PDT:
!!!AGN:
!!!SMS-siglum: PL-Wn
!!!SMS-shelfmark: Mus.III.65.947 Cim.
!!!SMS-shelfwork: 021 G
!!!SMS-variant:
!!!SMS-altvar:
!!!NIFC-rismid:
!!!OMD: Allegretto.
!!!system-decoration: [(s1,s2,s3,s4)]{(s5,s6)}
**kern	**kern	**dynam	**kern	**text	**dynam	**kern	**text	**dynam	**kern	**text	**dynam	**kern	**text	**dynam
*part5	*part5	*part5	*part4	*part4	*part4	*part3	*part3	*part3	*part2	*part2	*part2	*part1	*part1	*part1
*staff6	*staff5	*	*staff4	*staff4	*	*staff3	*staff3	*	*staff2	*staff2	*	*staff1	*staff1	*
*Iempty	*Ipiano	*	*Iempty	*	*	*Itenor	*	*	*Ialto	*	*	*Isoprn	*	*
*	*I"Piano	*	*I"Bas.	*	*	*I"Tenor.	*	*	*I"Alt.	*	*	*I"Sopran.	*	*
*	*I'pf	*	*I'B	*	*	*I'T	*	*	*I'A	*	*	*I'S	*	*
*clefF4	*clefG2	*	*clefF4	*	*	*clefGv2	*	*	*clefG2	*	*	*clefG2	*	*
*k[b-e-]	*k[b-e-]	*	*k[b-e-]	*	*	*k[b-e-]	*	*	*k[b-e-]	*	*	*k[b-e-]	*	*
*B-:	*B-:	*	*B-:	*	*	*B-:	*	*	*B-:	*	*	*B-:	*	*
*M3/4	*M3/4	*	*M3/4	*	*	*M3/4	*	*	*M3/4	*	*	*M3/4	*	*
=1	=1	=1	=1	=1	=1	=1	=1	=1	=1	=1	=1	=1	=1	=1
*^	*	*	*	*	*	*	*	*	*	*	*	*	*	*
!	!	!	!	!	!	!	!LO:TX:t=P:problem:w źrodle brak przenośnika oktawowego (8 pod kluczem)	!	!	!	!	!	!	!	!
!LO:N:vis=2	!	!	!	!	!	!	!	!	!	!	!	!	!	!	!
4B-/	2.B-\	(2ff 2dd\	p	2.ryy	.	.	2.ryy	.	.	2.ryy	.	.	2.ryy	.	.
(32qqd/LLL	.	.	.	.	.	.	.	.	.	.	.	.	.	.	.
32qqe-/JJJ	.	.	.	.	.	.	.	.	.	.	.	.	.	.	.
4f/)	.	.	.	.	.	.	.	.	.	.	.	.	.	.	.
4r	.	4bb-\)	.	.	.	.	.	.	.	.	.	.	.	.	.
=2	=2	=2	=2	=2	=2	=2	=2	=2	=2	=2	=2	=2	=2	=2	=2
*	*	*^	*	*	*	*	*	*	*	*	*	*	*	*	*
!LO:N:vis=2	!	!	!	!	!	!	!	!	!	!	!	!	!	!	!	!
4B-/	2.B-\	4bb-/	2.ee- 2.cc\	.	2.ryy	.	.	2.ryy	.	.	2.ryy	.	.	2.ryy	.	.
(32qqc/LLL	.	.	.	.	.	.	.	.	.	.	.	.	.	.	.	.
32qqe-/JJJ	.	.	.	.	.	.	.	.	.	.	.	.	.	.	.	.
4f/)	.	4aa/	.	.	.	.	.	.	.	.	.	.	.	.	.	.
4r	.	8gg/L	.	.	.	.	.	.	.	.	.	.	.	.	.	.
.	.	8ff/J	.	.	.	.	.	.	.	.	.	.	.	.	.	.
=3	=3	=3	=3	=3	=3	=3	=3	=3	=3	=3	=3	=3	=3	=3	=3	=3
!LO:N:vis=2	!	!	!	!	!	!	!	!	!	!	!	!	!	!	!	!
4B-/	2.B-\	2ddd/	2.ff 2.dd\	.	2.ryy	.	.	2.ryy	.	.	2.ryy	.	.	2.ryy	.	.
(32qqd/LLL	.	.	.	.	.	.	.	.	.	.	.	.	.	.	.	.
32qqe-/JJJ	.	.	.	.	.	.	.	.	.	.	.	.	.	.	.	.
4f/)	.	.	.	.	.	.	.	.	.	.	.	.	.	.	.	.
4r	.	(4ddd/	.	.	.	.	.	.	.	.	.	.	.	.	.	.
=4	=4	=4	=4	=4	=4	=4	=4	=4	=4	=4	=4	=4	=4	=4	=4	=4
!LO:N:vis=2	!	!	!	!	!	!	!	!	!	!	!	!	!	!	!	!
4B-/	2.B-\	2.bb-/)	2.ff 2.dd\	.	2.ryy	.	.	2.ryy	.	.	2.ryy	.	.	2.ryy	.	.
(32qqc/LLL	.	.	.	.	.	.	.	.	.	.	.	.	.	.	.	.
32qqe-/JJJ	.	.	.	.	.	.	.	.	.	.	.	.	.	.	.	.
4f/)	.	.	.	.	.	.	.	.	.	.	.	.	.	.	.	.
4r	.	.	.	.	.	.	.	.	.	.	.	.	.	.	.	.
*	*	*v	*v	*	*	*	*	*	*	*	*	*	*	*	*	*
=5	=5	=5	=5	=5	=5	=5	=5	=5	=5	=5	=5	=5	=5	=5	=5
!LO:N:vis=2	!	!	!	!	!	!	!	!	!	!	!	!	!	!	!
4B-/	2.B-\	(2ff 2dd\	.	2.ryy	.	.	2.ryy	.	.	2.ryy	.	.	2.ryy	.	.
(32qqd/LLL	.	.	.	.	.	.	.	.	.	.	.	.	.	.	.
32qqe-/JJJ	.	.	.	.	.	.	.	.	.	.	.	.	.	.	.
4f/)	.	.	.	.	.	.	.	.	.	.	.	.	.	.	.
4r	.	4bb-\)	.	.	.	.	.	.	.	.	.	.	.	.	.
=6	=6	=6	=6	=6	=6	=6	=6	=6	=6	=6	=6	=6	=6	=6	=6
*	*	*^	*	*	*	*	*	*	*	*	*	*	*	*	*
!LO:N:vis=2	!	!	!	!	!	!	!	!	!	!	!	!	!	!	!	!
4B-/	2.B-\	4bb-/	2.ee- 2.cc\	.	2.ryy	.	.	2.ryy	.	.	2.ryy	.	.	2.ryy	.	.
(32qqc/LLL	.	.	.	.	.	.	.	.	.	.	.	.	.	.	.	.
32qqe-/JJJ	.	.	.	.	.	.	.	.	.	.	.	.	.	.	.	.
4f/)	.	4aa/	.	.	.	.	.	.	.	.	.	.	.	.	.	.
4r	.	8gg/L	.	.	.	.	.	.	.	.	.	.	.	.	.	.
.	.	8ff/J	.	.	.	.	.	.	.	.	.	.	.	.	.	.
=7	=7	=7	=7	=7	=7	=7	=7	=7	=7	=7	=7	=7	=7	=7	=7	=7
4ryy	2.C\	2gg/	2.een 2.cc\	.	2.ryy	.	.	2.ryy	.	.	2.ryy	.	.	2.ryy	.	.
(32qqB-/LLL	.	.	.	.	.	.	.	.	.	.	.	.	.	.	.	.
32qqc/JJJ	.	.	.	.	.	.	.	.	.	.	.	.	.	.	.	.
4en/)	.	.	.	.	.	.	.	.	.	.	.	.	.	.	.	.
4r	.	4aa/	.	.	.	.	.	.	.	.	.	.	.	.	.	.
!!LO:LB:g=original
=8	=8	=8	=8	=8	=8	=8	=8	=8	=8	=8	=8	=8	=8	=8	=8	=8
4ryy	4F\	2ff/	2cc 2a\	.	2.r	.	.	2.r	.	.	2.r	.	.	2.r	.	.
(32qqA/LLL	.	.	.	.	.	.	.	.	.	.	.	.	.	.	.	.
32qqc/JJJ	.	.	.	.	.	.	.	.	.	.	.	.	.	.	.	.
2f 2c/)	2A\	.	.	.	.	.	.	.	.	.	.	.	.	.	.	.
.	.	4r	4ryy	.	.	.	.	.	.	.	.	.	.	.	.	.
*v	*v	*	*	*	*	*	*	*	*	*	*	*	*	*	*	*
=9	=9	=9	=9	=9	=9	=9	=9	=9	=9	=9	=9	=9	=9	=9	=9
!	!	!	!	!	!	!LO:DY:a	!	!	!LO:DY:a	!	!	!LO:DY:a	!	!	!LO:DY:a
4BB-/	(2f/	2.d\	.	2B-\	O	p	2d\	O	p	2f/	O	p	2f/	O	p
32qqD/LLL	.	.	.	.	.	.	.	.	.	.	.	.	.	.	.
32qqE-/JJJ	.	.	.	.	.	.	.	.	.	.	.	.	.	.	.
4F\	.	.	.	.	.	.	.	.	.	.	.	.	.	.	.
4r	4b-/)	.	.	4B-\	Woj-	.	4d\	Woj-	.	4f/	Woj-	.	4b-/	Woj-	.
=10	=10	=10	=10	=10	=10	=10	=10	=10	=10	=10	=10	=10	=10	=10	=10
4FF/	4b-/	2.f 2.c\	.	4F\	-cie-	.	4c\	-cie-	.	4f/	-cie-	.	4b-/	-cie-	.
32qqC/LLL	.	.	.	.	.	.	.	.	.	.	.	.	.	.	.
32qqE-/JJJ	.	.	.	.	.	.	.	.	.	.	.	.	.	.	.
4F\	4a/	.	.	4F\	-chu	.	4c\	-chu	.	4f/	-chu	.	4a/	-chu	.
4r	8g/L	.	.	8F\	Oj-	.	8c\	Oj-	.	8e-/	Oj-	.	8g/	Oj-	.
.	8f/J	.	.	8F\	-cze	.	8A\	-cze	.	8c/	-cze	.	8f/	-cze	.
=11	=11	=11	=11	=11	=11	=11	=11	=11	=11	=11	=11	=11	=11	=11	=11
4BB-/	8dd/L	2.d\	.	[2.BB-^/	nasz,	.	[2.B-^\	nasz,	.	(2.f^/	nasz,	.	(2.dd^\	nasz,	.
.	8f/	.	.	.	.	.	.	.	.	.	.	.	.	.	.
32qqBB-/LLL	.	.	.	.	.	.	.	.	.	.	.	.	.	.	.
32qqD/JJJ	.	.	.	.	.	.	.	.	.	.	.	.	.	.	.
4F\	8b-/	.	.	.	.	.	.	.	.	.	.	.	.	.	.
.	8f/	.	.	.	.	.	.	.	.	.	.	.	.	.	.
4r	8dd/	.	.	.	.	.	.	.	.	.	.	.	.	.	.
.	8b-/J	.	.	.	.	.	.	.	.	.	.	.	.	.	.
*	*v	*v	*	*	*	*	*	*	*	*	*	*	*	*	*
=12	=12	=12	=12	=12	=12	=12	=12	=12	=12	=12	=12	=12	=12	=12
4BB-\	8f/L	.	2BB-/]	.	.	2B-\]	.	.	2d/)	.	.	2b-\)	.	.
.	8d/	.	.	.	.	.	.	.	.	.	.	.	.	.
32qqD/LLL	.	.	.	.	.	.	.	.	.	.	.	.	.	.
32qqE-/JJJ	.	.	.	.	.	.	.	.	.	.	.	.	.	.
4F\	8dd/	.	.	.	.	.	.	.	.	.	.	.	.	.
.	8d/	.	.	.	.	.	.	.	.	.	.	.	.	.
4r	8e-/	.	4r	.	.	4r	.	.	4r	.	.	4r	.	.
.	8en/J	.	.	.	.	.	.	.	.	.	.	.	.	.
=13	=13	=13	=13	=13	=13	=13	=13	=13	=13	=13	=13	=13	=13	=13
*	*^	*	*	*	*	*	*	*	*	*	*	*	*	*
!	!	!	!	!	!	!LO:HP:a	!	!	!LO:HP:a	!	!	!LO:HP:a	!	!	!LO:HP:a
4BB-\	2f/	2.d\	.	2B-\	ty	<	2d\	ty	<	2f/	ty	<	2f/	ty	<
32qqD/LLL	.	.	.	.	.	.	.	.	.	.	.	.	.	.	.
32qqE-/JJJ	.	.	.	.	.	.	.	.	.	.	.	.	.	.	.
4F\	.	.	.	.	.	.	.	.	.	.	.	.	.	.	.
4r	4b-/	.	.	4B-\	bo-	[	4d\	bo-	[	4f/	bo-	[	4b-\	bo-	[
=14	=14	=14	=14	=14	=14	=14	=14	=14	=14	=14	=14	=14	=14	=14	=14
!	!	!	!	!LO:TX:a:t=P:problem:diminuendolike accent	!	!	!LO:TX:a:t=P:problem:diminuendolike accent	!	!	!	!	!	!	!	!
!	!	!	!	!	!	!	!	!	!	!LO:TX:a:t=P:problem:diminuendolike accent	!	!	!LO:TX:a:t=P:problem:diminuendolike accent	!	!
4FF/	4b-:/	2.f: 2.c:\	.	4F^>\	-żysz-	.	4c^>\	-żysz-	.	4f^>/	-żysz-	.	4b-^>\	-żysz-	.
32qqC/LLL	.	.	.	.	.	.	.	.	.	.	.	.	.	.	.
32qqE-/JJJ	.	.	.	.	.	.	.	.	.	.	.	.	.	.	.
4F\	4a/	.	.	4F\	-cza	.	4c\	-cza	.	4f/	-cza	.	4a\	-cza	.
4r	8g/L	.	.	8F\	na-	.	8A/	na-	.	8c/	na-	.	8g/	na-	.
.	8f/J	.	.	8F\	-sze	.	8A/	-sze	.	8c/	-sze	.	8f/	-sze	.
!!LO:LB:g=original
*	*v	*v	*	*	*	*	*	*	*	*	*	*	*	*	*
=15	=15	=15	=15	=15	=15	=15	=15	=15	=15	=15	=15	=15	=15	=15
!	!	!LO:HP:a	!	!	!	!	!	!	!	!	!	!	!	!
4CC/	(8e-/L	<	(2.C^>/	skrusz;	.	(2c^>\	skrusz;	.	(2.en^>/	skrusz;	.	(2.g^>/	skrusz;	.
.	8c/	.	.	.	.	.	.	.	.	.	.	.	.	.
32qqBB-/LLL	.	.	.	.	.	.	.	.	.	.	.	.	.	.
32qqC/JJJ	.	.	.	.	.	.	.	.	.	.	.	.	.	.
4En\	8g/	.	.	.	.	.	.	.	.	.	.	.	.	.
.	8en/	.	.	.	.	.	.	.	.	.	.	.	.	.
4r	8b-/	.	.	.	.	4B-\	.	.	.	.	.	.	.	.
.	8g/J	[	.	.	.	.	.	.	.	.	.	.	.	.
=16	=16	=16	=16	=16	=16	=16	=16	=16	=16	=16	=16	=16	=16	=16
4F 4C 4AA 4FF/	8f\L	>	2F\)	.	.	2A/)	.	.	2f/)	.	.	2f/)	.	.
.	8ff\	.	.	.	.	.	.	.	.	.	.	.	.	.
4r	8een\	.	.	.	.	.	.	.	.	.	.	.	.	.
.	8ee-X\	.	.	.	.	.	.	.	.	.	.	.	.	.
4r	8cc\	.	4r	.	.	4r	.	.	4r	.	.	4r	.	.
.	8a\J)	]	.	.	.	.	.	.	.	.	.	.	.	.
=17	=17	=17	=17	=17	=17	=17	=17	=17	=17	=17	=17	=17	=17	=17
*^	*	*	*	*	*	*	*	*	*	*	*	*	*	*
8D/L	[2.BB-\	2ff 2f\	mf	2B-\	Ty	.	2d\	Ty	.	2f/	Ty	.	2f/	Ty	.
8F/	.	.	.	.	.	.	.	.	.	.	.	.	.	.	.
8B-/	.	.	.	.	.	.	.	.	.	.	.	.	.	.	.
8F/	.	.	.	.	.	.	.	.	.	.	.	.	.	.	.
8D/	.	4bb- 4b-\	.	4B-\	sam	.	4d\	sam	.	4f/	sam	.	4b-\	sam	.
8F/J	.	.	.	.	.	.	.	.	.	.	.	.	.	.	.
=18	=18	=18	=18	=18	=18	=18	=18	=18	=18	=18	=18	=18	=18	=18	=18
8E-/L	2.BB-\]	(4bb- (4b-\	.	4F\	wie-	.	4c\	wie-	.	4e-/	wie-	.	4b-\	wie-	.
8F/	.	.	.	.	.	.	.	.	.	.	.	.	.	.	.
8A/	.	4aa 4a\))	.	4F\	-czną	.	4d\	-czną	.	4e-/	-czną	.	4a\	-czną	.
8F/	.	.	.	.	.	.	.	.	.	.	.	.	.	.	.
!	!	!	!	!	!	!LO:HP:a	!	!	!LO:HP:a	!	!	!LO:HP:a	!	!	!LO:HP:a
8E-/	.	8bb-L 8b-\	<	8E-\	praw-	<	8c\	praw-	<	8e-/	praw-	<	8b-\	praw-	<
8F/J	.	8cccJ 8cc\	[[	8C\	-dę	[[	8A\	-dę	[[	8c/	-dę	[[	8cc\	-dę	[[
=19	=19	=19	=19	=19	=19	=19	=19	=19	=19	=19	=19	=19	=19	=19	=19
!	!	!	!	!	!	!LO:DY:a	!	!	!LO:DY:a	!	!	!LO:DY:a	!	!	!LO:DY:a
8D/L	2.BB-\	4ddd 4dd\	.	2BB-^>/	znasz	f	2.d^>\	znasz	f	2.f^>/	znasz	f	2.dd^>\	znasz	f
8F/	.	.	.	.	.	.	.	.	.	.	.	.	.	.	.
8B-/	.	4ddd 4dd\	.	.	.	.	.	.	.	.	.	.	.	.	.
8F/	.	.	.	.	.	.	.	.	.	.	.	.	.	.	.
8D/	.	4ddd 4dd\	.	4B-\	Twój	.	.	.	.	.	.	.	.	.	.
8F/J	.	.	.	.	.	.	.	.	.	.	.	.	.	.	.
=20	=20	=20	=20	=20	=20	=20	=20	=20	=20	=20	=20	=20	=20	=20	=20
*	*^	*	*	*	*	*	*	*	*	*	*	*	*	*	*
!	!	!	!	!	!	!	!	!	!	!LO:HP:a	!	!	!LO:HP:a	!	!	!LO:HP:a
2.Bn/	4G/	2.F 2.BBn\	8dddL 8dd\	<	2.Bn\	Bóg	.	4d\	Bóg	>	2f/	Twój	>	4dd\	Twój	>
.	.	.	(8gg\	.	.	.	.	.	.	.	.	.	.	.	.	.
.	4G/	.	8ff#X\	[	.	.	.	4d\	pa-	.	.	.	.	4g/	Bóg	.
.	.	.	8gg\	>	.	.	.	.	.	.	.	.	.	.	.	.
.	4G/	.	8aa-X\	.	.	.	.	4d\	-nem	.	4f/	Bóg	.	4g/	jest	.
.	.	.	8gg\J)	]	.	.	.	.	.	.	.	.	.	.	.	.
!!LO:PB:g=original
*	*v	*v	*	*	*	*	*	*	*	*	*	*	*	*	*	*
=21	=21	=21	=21	=21	=21	=21	=21	=21	=21	=21	=21	=21	=21	=21	=21
*	*	*^	*	*	*	*	*	*	*	*	*	*	*	*	*
8C/L	2.C\	2gg/	4ff\	.	4c\	jest	.	2c\	jest	.	(4f/	pa-	.	2a/	pa-	.
8G/	.	.	.	.	.	.	.	.	.	.	.	.	.	.	.	.
8c/	.	.	4een\	.	4c\	pa-	.	.	.	.	4en/)	.	.	.	.	.
8G/	.	.	.	.	.	.	.	.	.	.	.	.	.	.	.	.
8BB-/	.	4ccc/	4ee 4cc\	.	4B-X\	-nem	.	4r	.	.	4cc\	-nem	.	4en/	-nem	.
8G/J	.	.	.	.	.	.	.	.	.	.	.	.	.	.	.	.
=22	=22	=22	=22	=22	=22	=22	=22	=22	=22	=22	=22	=22	=22	=22	=22	=22
*	*^	*	*	*	*	*	*	*	*	*	*	*	*	*	*	*
2A/	4F/	2.E- 2.AA\	8ccc/L	2.cc\	<	2A\	dusz	.	4r	.	.	(4cc\	pa-	.	4f/	dusz	.
.	.	.	8ff/	.	.	.	.	.	.	.	.	.	.	.	.	.	.
.	4F/	.	8een/	.	[	.	.	.	(4c\	Twój	.	4f/)	.	.	4r	.	.
.	.	.	8ff/	.	>	.	.	.	.	.	.	.	.	.	.	.	.
4ryy	4F/	.	8gg/	.	.	4r	.	.	4B-\)	.	.	4e-X/	-nem	.	4f/	Twój	.
.	.	.	8ff/J	.	]	.	.	.	.	.	.	.	.	.	.	.	.
*	*v	*v	*	*	*	*	*	*	*	*	*	*	*	*	*	*	*
*	*	*v	*v	*	*	*	*	*	*	*	*	*	*	*	*	*
=23	=23	=23	=23	=23	=23	=23	=23	=23	=23	=23	=23	=23	=23	=23	=23
!	!	!	!	!	!	!	!	!	!	!	!	!	!	!	!LO:DY:a
8D/L	2.BB-\	4ff 4dd\	.	2BB-/	Bóg	.	2B-\	Bóg	.	2d/	dusz	.	4f/	Bóg	<
8F/	.	.	.	.	.	.	.	.	.	.	.	.	.	.	.
8B-/	.	4bb- 4b-^\	<	.	.	.	.	.	.	.	.	.	4b-/	pa-	.
8F/	.	.	.	.	.	.	.	.	.	.	.	.	.	.	.
8D/	.	4aa 4a\	.	4D/	jest	.	4f\	jest	.	4r	.	.	4a/	-nem	[
8F/J	.	.	.	.	.	.	.	.	.	.	.	.	.	.	.
=24	=24	=24	=24	=24	=24	=24	=24	=24	=24	=24	=24	=24	=24	=24	=24
!	!LO:TX:a:t=P:problem:note position	!	!	!	!	!	!	!	!	!	!	!	!	!	!
8E-/L	2.E-\	4gg 4g\	.	2E-\	pa-	.	2B-\	pa-	.	2g/	Bóg	.	(4g/	dusz	.
8G/	.	.	.	.	.	.	.	.	.	.	.	.	.	.	.
8c/	.	4ddd 4dd\	.	.	.	.	.	.	.	.	.	.	4dd\)	.	.
8G/	.	.	.	.	.	.	.	.	.	.	.	.	.	.	.
8En/	.	4ccc 4cc\	.	4En\	-nem	.	4c\	-nem	.	4g/	jest	.	4cc\	jest	.
8G/J	.	.	.	.	.	.	.	.	.	.	.	.	.	.	.
=25	=25	=25	=25	=25	=25	=25	=25	=25	=25	=25	=25	=25	=25	=25	=25
*	*	*^	*	*	*	*	*	*	*	*	*	*	*	*	*
!	!LO:TX:a:t=P:problem:note position	!	!	!	!	!	!	!	!	!	!	!	!	!	!	!
!	!	!	!	!	!	!	!LO:HP:a:Bi:t=dim.	!	!	!LO:HP:a:Bi:t=dim.	!	!	!LO:HP:a:Bi:t=dim.	!	!	!
8F/L	2.F\	4bb-/	2ff 2dd\	.	2F\	pa-	>	[2d\	pa-	>	2f/	pa-	>	(4b-/	pa-	.
8B-/	.	.	.	.	.	.	.	.	.	.	.	.	.	.	.	.
.	.	8qccc/	.	.	.	.	.	.	.	.	.	.	.	8qcc/	.	.
!	!	!	!	!	!	!	!	!	!	!	!	!	!	!	!	!LO:HP:a:Bi:t=dim.
8d/	.	8bb-/L	.	.	.	.	.	.	.	.	.	.	.	8b-\L	.	>
8B-/	.	8aa/	.	.	.	.	.	.	.	.	.	.	.	8a\	.	.
8F/	.	8bb-/	4r	.	4F\	-nem	.	8d\]	.	.	4f/	-nem	.	8b-\J)	.	.
8B-/J	.	8ccc/J	.	.	.	.	.	8e-\	-nem	.	.	.	.	8cc\	-nem	.
*v	*v	*	*	*	*	*	*	*	*	*	*	*	*	*	*	*
*	*v	*v	*	*	*	*	*	*	*	*	*	*	*	*	*
=26	=26	=26	=26	=26	=26	=26	=26	=26	=26	=26	=26	=26	=26	=26
!	!	!	!	!	!LO:DY:a	!	!	!LO:DY:a	!	!	!LO:DY:a	!	!	!LO:DY:a
2c 2A 2F\	8aaL 8ff 8cc\	.	2F\	dusz!	p	2c\	dusz!	p	2f/	dusz!	p	2a/	dusz!	p
.	8ff\	.	.	.	.	.	.	.	.	.	.	.	.	.
.	8een\	.	.	.	.	.	.	.	.	.	.	.	.	.
.	8ff\	.	.	.	.	.	.	.	.	.	.	.	.	.
.	8qaa/	.	.	.	.	.	.	.	.	.	.	.	.	.
4r	8gg\	.	4F\	On	.	4B-\	On	.	4r	.	.	4f/	On	.
.	8ff\J	.	.	.	.	.	.	.	.	.	.	.	.	.
!!LO:LB:g=original
=27	=27	=27	=27	=27	=27	=27	=27	=27	=27	=27	=27	=27	=27	=27
*^	*	*	*	*	*	*	*	*	*	*	*	*	*	*
8D/L	2.BB-\	[2.ffTT\	.	2B-\	sam	.	2d\	sam	.	2f/	sam	.	2f/	sam	.
8F/	.	.	.	.	.	.	.	.	.	.	.	.	.	.	.
8B-/	.	.	.	.	.	.	.	.	.	.	.	.	.	.	.
8F/	.	.	.	.	.	.	.	.	.	.	.	.	.	.	.
!LO:TX:a:Bi:t=cres-cen-do.:dur=11e:ext=ud:problem:dynamics with extention lines	!	!	!	!	!	!	!	!	!	!	!	!	!	!	!
8D/	.	.	<	4B-\	ten	.	4d\	ten	.	4f/	ten	.	4b-\	ten	.
8F/J	.	.	.	.	.	.	.	.	.	.	.	.	.	.	.
=28	=28	=28	=28	=28	=28	=28	=28	=28	=28	=28	=28	=28	=28	=28	=28
8E-/L	2.BB-\	2.ff_\TTT	.	[2F^>\	pra-	.	[2c^>\	pra-	.	[2f^>/	pra-	.	4b-^>\	pra-	.
8F/	.	.	.	.	.	.	.	.	.	.	.	.	.	.	.
8A/	.	.	.	.	.	.	.	.	.	.	.	.	4a\	-wy	.
8F/	.	.	.	.	.	.	.	.	.	.	.	.	.	.	.
8E-/	.	.	.	8F\]	.	.	8c\]	.	.	8f/]	.	.	8b-\	pra-	.
8F/J	.	.	.	8F\	-wy	.	8c\	-wy	.	8f/	-wy	.	8cc\	-wy	.
=29	=29	=29	=29	=29	=29	=29	=29	=29	=29	=29	=29	=29	=29	=29	=29
!	!	!	!	!	!	!LO:DY:a	!	!	!LO:DY:a	!	!	!LO:DY:a	!	!	!LO:DY:a
8D/L	2.BB-\	4ff\TTT]	.	2.BB-/	Bóg	f	2.B-\	Bóg	f	2.f/	Bóg	f	2.dd\	Bóg	f
8F/	.	.	.	.	.	.	.	.	.	.	.	.	.	.	.
8B-/	.	4fff 4ff\	[[	.	.	.	.	.	.	.	.	.	.	.	.
8F/	.	.	.	.	.	.	.	.	.	.	.	.	.	.	.
8D/	.	4fff 4ff\	.	.	.	.	.	.	.	.	.	.	.	.	.
8F/J	.	.	.	.	.	.	.	.	.	.	.	.	.	.	.
=30	=30	=30	=30	=30	=30	=30	=30	=30	=30	=30	=30	=30	=30	=30	=30
!LO:N:vis=2	!	!	!	!	!	!	!	!	!	!	!	!	!	!	!
8E-/L	2E-\	(4fff 4ff\	.	4E-\	przez	.	4c\	przez	.	4g/	przez	.	4dd\	przez	.
8G/	.	.	.	.	.	.	.	.	.	.	.	.	.	.	.
8c/	.	8cccL 8cc\	.	4E-\	us-	.	4c\	us-	.	4g/	us-	.	(8cc\L	us-	.
8G/	.	8bb-\	.	.	.	.	.	.	.	.	.	.	8b-\J)	.	.
8E-/	4E-\	8aa\	.	4E-\	-ta	.	4c\	-ta	.	4g/	-ta	.	(8a/L	-ta	.
8G/J	.	8gg\J)	.	.	.	.	.	.	.	.	.	.	8g/J)	.	.
=31	=31	=31	=31	=31	=31	=31	=31	=31	=31	=31	=31	=31	=31	=31	=31
!	!LO:TX:a:t=P:problem:note position	!	!	!	!	!	!	!	!	!	!	!	!	!	!
8F/L	2.F\	(4ccc 4ff 4dd\	.	[4F\	twe	.	[2d\	twe	.	(2g/	twe	.	(4cc\	twe	.
8B-/	.	.	.	.	.	.	.	.	.	.	.	.	.	.	.
!	!	!	!	!	!	!	!	!	!	!	!	!	!	!	!LO:HP:a
8d/	.	8bb-L 8ff 8dd\	.	4.F\]	.	>	.	.	.	.	.	.	8b-/L	.	>
8B-/	.	8aa\	.	.	.	.	.	.	.	.	.	.	8a/	.	.
!	!	!	!	!	!	!	!	!	!LO:HP:a:rj	!	!	!LO:HP:a:rj	!	!	!
8F/	.	8gg\	.	.	.	.	8d\]	.	>	8f/)	.	>	8g/J)	.	.
8B-/J	.	8ff\J)	.	8F\	prze-	.	8d\	prze-	.	8f/	prze-	.	8f/	prze-	.
*v	*v	*	*	*	*	*	*	*	*	*	*	*	*	*	*
=32	=32	=32	=32	=32	=32	=32	=32	=32	=32	=32	=32	=32	=32	=32
*	*^	*	*	*	*	*	*	*	*	*	*	*	*	*
2.e- 2.c 2.F\	8ff/L	2.ff\	.	2.F^>\	-ma-	.	(2c^>\	-ma-	.	2.a^>/	-ma-	.	(2ff^>\	-ma-	.
.	8aa/	.	.	.	.	.	.	.	.	.	.	.	.	.	.
.	8ccc/	.	.	.	.	.	.	.	.	.	.	.	.	.	.
.	8fff/	.	.	.	.	.	.	.	.	.	.	.	.	.	.
.	8eee-/	.	.	.	.	.	4e-\)	.	.	.	.	.	8ee-\L	.	.
.	8ccc/J	.	.	.	.	.	.	.	.	.	.	.	8cc\J)	.	.
!!LO:LB:g=original
=33	=33	=33	=33	=33	=33	=33	=33	=33	=33	=33	=33	=33	=33	=33	=33
4BB-/	4ryy	4bb-\	.	2BB-/	-wia	.	2d\	-wia	.	2b-\	-wia	.	2dd\	-wia	.
4d: 4B-: 4F:\	2bb-/	(8dd\L	.	.	.	.	.	.	.	.	.	.	.	.	.
.	.	8ff\	.	.	.	.	.	.	.	.	.	.	.	.	.
4r	.	8ee-\	.	4r	.	.	4r	.	.	4r	.	.	4r	.	.
.	.	8dd\J)	.	.	.	.	.	.	.	.	.	.	.	.	.
=34	=34	=34	=34	=34	=34	=34	=34	=34	=34	=34	=34	=34	=34	=34	=34
4FF/	8aa/L	8cc\L	.	2.r	.	.	2.r	.	.	2.r	.	.	2.r	.	.
.	8gg/	8ee-\	.	.	.	.	.	.	.	.	.	.	.	.	.
4e- 4c 4F\	8ff/	8a\	.	.	.	.	.	.	.	.	.	.	.	.	.
.	8ee-/	8cc\	.	.	.	.	.	.	.	.	.	.	.	.	.
4r	8dd/	8f\	.	.	.	.	.	.	.	.	.	.	.	.	.
.	8cc/J	8a\J	.	.	.	.	.	.	.	.	.	.	.	.	.
*	*v	*v	*	*	*	*	*	*	*	*	*	*	*	*	*
=35	=35	=35	=35	=35	=35	=35	=35	=35	=35	=35	=35	=35	=35	=35
*^	*	*	*	*	*	*	*	*	*	*	*	*	*	*
8D/L	2.BB-\	2ff 2f\	.	2.r	.	.	2.r	.	.	2.r	.	.	2.r	.	.
8F/	.	.	.	.	.	.	.	.	.	.	.	.	.	.	.
8B-/	.	.	.	.	.	.	.	.	.	.	.	.	.	.	.
8F/	.	.	.	.	.	.	.	.	.	.	.	.	.	.	.
8D/	.	4bb- 4b-\	.	.	.	.	.	.	.	.	.	.	.	.	.
8F/J	.	.	.	.	.	.	.	.	.	.	.	.	.	.	.
=36	=36	=36	=36	=36	=36	=36	=36	=36	=36	=36	=36	=36	=36	=36	=36
8E-/L	2.BB-\	4bb- 4b-^\	.	2.r	.	.	2.r	.	.	2.r	.	.	2.r	.	.
8F/	.	.	.	.	.	.	.	.	.	.	.	.	.	.	.
8A/	.	4aa 4a\	.	.	.	.	.	.	.	.	.	.	.	.	.
8F/	.	.	.	.	.	.	.	.	.	.	.	.	.	.	.
8E-/	.	8ggL 8g\	.	.	.	.	.	.	.	.	.	.	.	.	.
8F/J	.	8ffJ 8f\	.	.	.	.	.	.	.	.	.	.	.	.	.
=37	=37	=37	=37	=37	=37	=37	=37	=37	=37	=37	=37	=37	=37	=37	=37
!	!	!	!	!	!	!LO:DY:a	!	!	!	!	!	!	!	!	!
8D/L	2.BB-\	(2.fff (2.ff\	.	2F\	On	f	2.r	.	.	2.r	.	.	2.r	.	.
8F/	.	.	.	.	.	.	.	.	.	.	.	.	.	.	.
8B-/	.	.	.	.	.	.	.	.	.	.	.	.	.	.	.
8F/	.	.	.	.	.	.	.	.	.	.	.	.	.	.	.
8D/	.	.	.	4B-\	sam	.	.	.	.	.	.	.	.	.	.
8F/J	.	.	.	.	.	.	.	.	.	.	.	.	.	.	.
=38	=38	=38	=38	=38	=38	=38	=38	=38	=38	=38	=38	=38	=38	=38	=38
8D/L	2.BB-\	2bb- 2b-\))	f	(4B-\	ten	.	2.r	.	.	2.r	.	.	2.r	.	.
8F/	.	.	.	.	.	.	.	.	.	.	.	.	.	.	.
8B-/	.	.	.	4A\)	.	.	.	.	.	.	.	.	.	.	.
8F/	.	.	.	.	.	.	.	.	.	.	.	.	.	.	.
8D/	.	4r	.	8G\	pra-	.	.	.	.	.	.	.	.	.	.
8F/J	.	.	.	8F\	-wy	.	.	.	.	.	.	.	.	.	.
!!LO:PB:g=original
=39	=39	=39	=39	=39	=39	=39	=39	=39	=39	=39	=39	=39	=39	=39	=39
8D/L	2.BB-\	4r	.	2.B-\	Bóg	.	2d\	On	.	2f/	On	.	2.r	.	.
8F/	.	.	.	.	.	.	.	.	.	.	.	.	.	.	.
8B-/	.	4f 4d/	.	.	.	.	.	.	.	.	.	.	.	.	.
8F/	.	.	.	.	.	.	.	.	.	.	.	.	.	.	.
8D/	.	4b- 4f 4d/	.	.	.	.	4d\	sam	.	4b-\	sam	.	.	.	.
8F/J	.	.	.	.	.	.	.	.	.	.	.	.	.	.	.
=40	=40	=40	=40	=40	=40	=40	=40	=40	=40	=40	=40	=40	=40	=40	=40
*	*	*^	*	*	*	*	*	*	*	*	*	*	*	*	*
!LO:N:vis=2	!	!	!	!	!	!	!	!	!	!	!	!	!	!	!	!
8DD/L	2DD\	4b-/	2f#X 2c\	>	2D\	pra-	.	(4d\	ten	.	(4b-/	ten	.	2.r	.	.
8AA/	.	.	.	.	.	.	.	.	.	.	.	.	.	.	.	.
8D/	.	4a/	.	]	.	.	.	4c\)	.	.	4a/)	.	.	.	.	.
8AA/	.	.	.	.	.	.	.	.	.	.	.	.	.	.	.	.
8DD/	4DD\	8g/L	8B-\L	.	4D\	-wy	.	8B-\	pra-	.	8g/	pra-	.	.	.	.
8AA/J	.	8f#/J	8A\J	.	.	.	.	8A/	-wy	.	8f#X/	-wy	.	.	.	.
*	*	*v	*v	*	*	*	*	*	*	*	*	*	*	*	*	*
=41	=41	=41	=41	=41	=41	=41	=41	=41	=41	=41	=41	=41	=41	=41	=41
!	!LO:TX:a:t=P:problem:note position	!	!	!	!	!	!	!	!	!	!	!	!	!	!
!	!LO:N:vis=2.	!	!	!	!	!	!	!	!	!	!	!	!	!	!
8GG/L	2GG\	8r	.	2G\	Bóg	.	(2.B-\	Bóg	.	[2.g/	Bóg	.	2.r	.	.
8BB-/	.	(8g\L	<	.	.	.	.	.	.	.	.	.	.	.	.
8D/	.	8b-\	.	.	.	.	.	.	.	.	.	.	.	.	.
8BB-/	.	8dd\	.	.	.	.	.	.	.	.	.	.	.	.	.
8GG/	4GG\	8ff#X\	.	8G\	pra-	.	.	.	.	.	.	.	.	.	.
8BB-/J	.	[8gg\J)	[	8G\	-wy	.	.	.	.	.	.	.	.	.	.
=42	=42	=42	=42	=42	=42	=42	=42	=42	=42	=42	=42	=42	=42	=42	=42
!	!LO:TX:a:t=P:problem:note position	!	!	!	!	!	!	!	!	!	!	!	!	!	!
8AA/L	2AA\	8gg\L]	.	2A\	Bóg	.	2c\)	.	.	2g/]	.	.	2.r	.	.
8C/	.	8gg\	>	.	.	.	.	.	.	.	.	.	.	.	.
8F/	.	8ffn\	.	.	.	.	.	.	.	.	.	.	.	.	.
8C/	.	8ee-\	.	.	.	.	.	.	.	.	.	.	.	.	.
8FF/	4FF\	8cc\	.	4A\	przez	.	4c\	przez	.	4fn/	przez	.	.	.	.
8F/J	.	8a\J	]	.	.	.	.	.	.	.	.	.	.	.	.
=43	=43	=43	=43	=43	=43	=43	=43	=43	=43	=43	=43	=43	=43	=43	=43
8D/L	2BB-\	4f/	.	2B-\	us-	.	2.d\	us_ta	.	2f/	us-	.	2f/	Pra-	.
8F/	.	.	.	.	.	.	.	.	.	.	.	.	.	.	.
8B-/	.	4ff 4f\	.	.	.	.	.	.	.	.	.	.	.	.	.
8F/	.	.	.	.	.	.	.	.	.	.	.	.	.	.	.
8D/	4BB-\	4r	.	4B-\	-ta	.	.	.	.	4f/	-ta	.	4b-\	-wy	.
8F/J	.	.	.	.	.	.	.	.	.	.	.	.	.	.	.
=44	=44	=44	=44	=44	=44	=44	=44	=44	=44	=44	=44	=44	=44	=44	=44
8E-/L	2BB-\	4r	.	2F\	twe	.	2c\	twe	.	2f/	twe	.	4b-\	Bóg	.
8F/	.	.	.	.	.	.	.	.	.	.	.	.	.	.	.
8A/	.	4ff 4f\	.	.	.	.	.	.	.	.	.	.	4a\	przez	.
8F/	.	.	.	.	.	.	.	.	.	.	.	.	.	.	.
8E-/	4BB-\	4ff 4f\	.	8F\L	prze-	.	8c\L	prze-	.	8d/L	prze-	.	8b-\	us-	.
8F/J	.	.	.	8F\J	.	.	8d\J	.	.	8c/J	.	.	8cc\	-ta	.
!!LO:LB:g=original
=45	=45	=45	=45	=45	=45	=45	=45	=45	=45	=45	=45	=45	=45	=45	=45
8D/L	2BB-\	(8ddd\L	.	2.BB-/	-ma-	.	(2d\	-ma-	.	2.f/	-ma-	.	[2dd\	twe	.
8F/	.	8dd\	.	.	.	.	.	.	.	.	.	.	.	.	.
8B-/	.	8ff\	.	.	.	.	.	.	.	.	.	.	.	.	.
8F/	.	8bb-\	.	.	.	.	.	.	.	.	.	.	.	.	.
8D/	4D\	8ddd\	.	.	.	.	8A\L	.	.	.	.	.	8dd\]	.	.
8F/J	.	8ddd\J)	.	.	.	.	8B-\J)	.	.	.	.	.	8dd\	prze-	.
=46	=46	=46	=46	=46	=46	=46	=46	=46	=46	=46	=46	=46	=46	=46	=46
!LO:N:vis=2	!	!	!	!	!	!	!	!	!	!	!	!	!	!	!
8E-/L	2E-\	(4ddd\	.	2.E-\	-wia	.	2.c\	-wia	.	(4g/	-wia	.	4dd\	-ma-	.
8G/	.	.	.	.	.	.	.	.	.	.	.	.	.	.	.
8c/	.	8ccc\L)	.	.	.	.	.	.	.	8b-/L	.	.	4cc\	-wia	.
8G/	.	8bb-\	.	.	.	.	.	.	.	8a/J)	.	.	.	.	.
8E-/	4E-\	8aa\	.	.	.	.	.	.	.	4g/	przez	.	4r	.	.
8G/J	.	8gg\J	.	.	.	.	.	.	.	.	.	.	.	.	.
=47	=47	=47	=47	=47	=47	=47	=47	=47	=47	=47	=47	=47	=47	=47	=47
*	*	*^	*	*	*	*	*	*	*	*	*	*	*	*	*
!	!LO:TX:a:t=P:problem:note position	!	!	!	!	!	!	!	!	!	!	!	!	!	!	!
8F/L	2F\	4.ccc/	4.ff\	.	2F\	Bóg	.	2d\	Bóg	.	4.f/	us-	.	4r	.	.
8B-/	.	.	.	.	.	.	.	.	.	.	.	.	.	.	.	.
8d/	.	.	.	.	.	.	.	.	.	.	.	.	.	4r	.	.
8B-/	.	8gg\L	8ryy	.	.	.	.	.	.	.	8g/	-ta	.	.	.	.
8F/	4F\	8aa\	4ryy	.	4F\	prze-	.	8e-\L	prze-	.	8a/	twe	.	4f/	prze-	.
8B-/J	.	8bb-\J	.	.	.	.	.	8d\J	.	.	8g/	prze-	.	.	.	.
*v	*v	*	*	*	*	*	*	*	*	*	*	*	*	*	*	*
*	*v	*v	*	*	*	*	*	*	*	*	*	*	*	*	*
=48	=48	=48	=48	=48	=48	=48	=48	=48	=48	=48	=48	=48	=48	=48
4F\	8aa\L	.	2.F\	-ma-	.	2.c\	-ma-	.	(4a/	-ma-	.	(2cc\	-ma-	.
.	8ff\	.	.	.	.	.	.	.	.	.	.	.	.	.
4c 4A\	8een\	<	.	.	.	.	.	.	2f/)	.	.	.	.	.
.	8ff\	.	.	.	.	.	.	.	.	.	.	.	.	.
4F\	8aa\	.	.	.	.	.	.	.	.	.	.	8ee-\L	.	.
.	8fff\J	[	.	.	.	.	.	.	.	.	.	8dd\J)	.	.
=49	=49	=49	=49	=49	=49	=49	=49	=49	=49	=49	=49	=49	=49	=49
*	*^	*	*	*	*	*	*	*	*	*	*	*	*	*
4BB-\	4ryy	4ddd\	.	2BB-/	-wia	.	2d\	-wia	.	2b-\	-wia	.	2b-\	-wia	.
4d 4B- 4F\	2bb-/	(8dd\L	.	.	.	.	.	.	.	.	.	.	.	.	.
.	.	8ff\	.	.	.	.	.	.	.	.	.	.	.	.	.
4r	.	8ee-\	.	4r	.	.	4r	.	.	4r	.	.	4r	.	.
.	.	8dd\J)	.	.	.	.	.	.	.	.	.	.	.	.	.
=50	=50	=50	=50	=50	=50	=50	=50	=50	=50	=50	=50	=50	=50	=50	=50
4FF/	8aa/L	8cc\L	.	2.r	.	.	2.r	.	.	2.r	.	.	2.r	.	.
.	8gg/	8ee-\	.	.	.	.	.	.	.	.	.	.	.	.	.
4r	8ff/	8a\	.	.	.	.	.	.	.	.	.	.	.	.	.
.	8ee-/	8cc\	.	.	.	.	.	.	.	.	.	.	.	.	.
4c 4F\	8dd/	8f\	.	.	.	.	.	.	.	.	.	.	.	.	.
.	8cc/J	8a\J	.	.	.	.	.	.	.	.	.	.	.	.	.
!!LO:LB:g=original
*	*v	*v	*	*	*	*	*	*	*	*	*	*	*	*	*
=51	=51	=51	=51	=51	=51	=51	=51	=51	=51	=51	=51	=51	=51	=51
!	!	!	!	!	!LO:DY:a	!	!	!LO:DY:a	!	!	!LO:DY:a	!	!	!LO:DY:a
2B- 2BB-\	8ffL 8dd 8f\	f	2B-\	Każ-	f	2f\	Każ-	f	2dd\	Każ-	f	2ff\	Każ-	f
.	8ff 8dd 8f\	.	.	.	.	.	.	.	.	.	.	.	.	.
.	8ff 8dd 8f\	.	.	.	.	.	.	.	.	.	.	.	.	.
.	8ff 8dd 8f\	.	.	.	.	.	.	.	.	.	.	.	.	.
4B- 4BB-\	8ff 8dd 8f\	.	4B-\	-dy	.	4f\	-dy	.	4dd\	-dy	.	4ff\	-dy	.
.	8ffJ 8dd 8f\	.	.	.	.	.	.	.	.	.	.	.	.	.
=52	=52	=52	=52	=52	=52	=52	=52	=52	=52	=52	=52	=52	=52	=52
4B- 4BB-\	8ffL 8dd 8f\	.	(4B-\	dziś	.	2f\	dziś	.	(4dd\	dziś	.	2ff\	dziś	.
.	8ff 8dd 8f\	.	.	.	.	.	.	.	.	.	.	.	.	.
4A 4AA\	8ff 8cc 8f\	.	4A\)	.	.	.	.	.	4cc\)	.	.	.	.	.
.	8ff 8cc 8f\	.	.	.	.	.	.	.	.	.	.	.	.	.
8B-L 8BB-\	8ff 8dd 8f\	.	8B-\	z wier-	.	8f\	z wier-	.	8dd\	z wier-	.	8ff\	z wier-	.
8cJ 8C\	8ffJ 8dd 8f\	.	8c\	-nych	.	8f\	-nych	.	8ee-\	-nych	.	8ff\	-nych	.
=53	=53	=53	=53	=53	=53	=53	=53	=53	=53	=53	=53	=53	=53	=53
4d 4D\	8ffL 8dd 8b- 8f\	.	(4B-\	sług	.	(4f\	sług	.	(4dd\	sług	.	(4ff\	sług	.
.	8ff 8dd 8b- 8f\	.	.	.	.	.	.	.	.	.	.	.	.	.
!	!	!LO:DY:b:rj	!	!	!	!	!	!	!	!	!	!	!	!
2c 2C^\	8gg 8b- 8g\	sf	2E-\)	.	.	2e-\)	.	.	2b-\)	.	.	2gg\)	.	.
.	8gg 8b- 8g\	.	.	.	.	.	.	.	.	.	.	.	.	.
.	8gg 8b- 8g\	.	.	.	.	.	.	.	.	.	.	.	.	.
.	8ggJ 8b- 8g\	.	.	.	.	.	.	.	.	.	.	.	.	.
=54	=54	=54	=54	=54	=54	=54	=54	=54	=54	=54	=54	=54	=54	=54
*	*^	*	*	*	*	*	*	*	*	*	*	*	*	*
(>2en &(<2En\	8cc/L	8b-\L	.	2E-\	z wier-	.	2en\	z wier-	.	(4b-/	z wier-	.	2cc\	z wier-	.
.	8cc/	8b-\	.	.	.	.	.	.	.	.	.	.	.	.	.
.	8cc/	8a\	.	.	.	.	.	.	.	8a/L	.	.	.	.	.
.	8cc/J	8g\J	.	.	.	.	.	.	.	8g/J)	.	.	.	.	.
4f) 4F\&)	8ff/L	8aL 8f\	.	4F\	-nych	.	4c\	-nych	.	4a/	-nych	.	4ff\	-nych	.
.	8ff/J	8aJ 8f\	.	.	.	.	.	.	.	.	.	.	.	.	.
=55	=55	=55	=55	=55	=55	=55	=55	=55	=55	=55	=55	=55	=55	=55	=55
(>2d &(<2D^>\	8b-X/L	8aL 8f\	sf	2D\	sług	.	2B-\	sług	.	2a-X/	sług	.	2b-\	sług	.
.	8b-/	8a 8f\	.	.	.	.	.	.	.	.	.	.	.	.	.
.	8b-/	8a 8f\	.	.	.	.	.	.	.	.	.	.	.	.	.
.	8b-/J	8aJ 8f\	.	.	.	.	.	.	.	.	.	.	.	.	.
4e-) 4E-\&)	8ee-/L	8g\L	.	8E-\	niech	.	8B-\	niech	.	8g/	niech	.	8ee-\	niech	.
.	8ee-/J	8g\J	.	8E-\	w po-	.	8B-\	w po-	.	8g/	w po-	.	8ee-\	w po-	.
=56	=56	=56	=56	=56	=56	=56	=56	=56	=56	=56	=56	=56	=56	=56	=56
(>2c &(<2C^>\	8a/L	8gL 8e-\	sf	2C\	-ko-	.	2c\	-ko-	.	2g/	-ko-	.	2a/	-ko-	.
.	8a/	8g 8e-\	.	.	.	.	.	.	.	.	.	.	.	.	.
.	8a/	8g 8e-\	.	.	.	.	.	.	.	.	.	.	.	.	.
.	8a/J	8gJ 8e-\	.	.	.	.	.	.	.	.	.	.	.	.	.
4d) 4D\&)	8dd/L	8f#X\L	.	8D\	-rze	.	8d\	-rze	.	8f#X/	-rze	.	8dd\	-rze	.
.	8dd/J	8f#\J	.	8D\	w po-	.	8d\	w po-	.	8f#/	w po-	.	8dd\	w po-	.
!!LO:PB:g=original
*	*v	*v	*	*	*	*	*	*	*	*	*	*	*	*	*
=57	=57	=57	=57	=57	=57	=57	=57	=57	=57	=57	=57	=57	=57	=57
4G 4GG/	4b- 4g 4d/	.	(4G\	-ko-	.	(4d\	-ko-	.	2.dd\	-ko-	.	(4b-\	-ko-	.
4A 4AA/	4dd 4cc 4f#X 4d^/	.	4A\)	.	.	4f\)	.	.	.	.	.	4cc\)	.	.
4G 4GG/	4dd 4b- 4g 4d^/	.	4G\	-rze	.	4g\	-rze	.	.	.	.	4b-\	-rze	.
=58	=58	=58	=58	=58	=58	=58	=58	=58	=58	=58	=58	=58	=58	=58
4F 4FF/	4dd 4a 4d/	.	(4F\	go	.	(4d\	go	.	4a/	-rze	.	(4dd\	go	.
4E- 4EE-/	4cc 4g 4c/	.	4E-\)	.	.	4e-\)	.	.	4g/	go	.	4cc\)	.	.
4D 4DD/	4b- 4fn 4d/	.	4D\	wy-	.	4f\	wy-	.	4fn/	wy-	.	4b-\	wy-	.
=59	=59	=59	=59	=59	=59	=59	=59	=59	=59	=59	=59	=59	=59	=59
4C 4CC/	4a 4f 4e-^/	.	4C/	-sła-	.	[2.f\	-sła-	.	4f/	-sła-	.	4a\	-sła-	.
4c 4C\	4ee- 4a 4f^/	.	4c\	-wia	.	.	.	.	4a\	-wia	.	4ee-\	-wia	.
4B- 4BB-\	4dd 4b- 4f^/	.	4B-\	wy-	.	.	.	.	4b-\	wy-	.	4dd\	wy-	.
=60	=60	=60	=60	=60	=60	=60	=60	=60	=60	=60	=60	=60	=60	=60
4AA 4AAA/	(4ff 4cc 4f^/	.	(2A\	-sła-	.	2.f\]	.	.	(2cc\	-sła-	.	(4ff\	-sła-	.
4A 4AA\	4ee- 4cc 4f^/	.	.	.	.	.	.	.	.	.	.	4ee-\	.	.
4B- 4BB-\	4dd 4b- 4f^/	.	4B-\)	.	.	.	.	.	4b-\)	.	.	4dd\)	.	.
=61	=61	=61	=61	=61	=61	=61	=61	=61	=61	=61	=61	=61	=61	=61
4F 4FF/	4cc 4a 4f/)	.	4F\	-wia	.	4F/	-wia	.	4a/	-wia	.	4cc\	-wia	.
8F\L	4r	>	4r	.	.	4r	.	.	4r	.	.	4r	.	.
8E-\	.	.	.	.	.	.	.	.	.	.	.	.	.	.
8D\	4r	.	4r	.	.	4r	.	.	4r	.	.	4r	.	.
8C\J	.	.	.	.	.	.	.	.	.	.	.	.	.	.
=62	=62	=62	=62	=62	=62	=62	=62	=62	=62	=62	=62	=62	=62	=62
*^	*	*	*	*	*	*	*	*	*	*	*	*	*	*
8D/L	2BB-\	4ff 4f\	p	2.r	.	.	2.r	.	.	2.r	.	.	2f/	Gdyż	.
8F/	.	.	.	.	.	.	.	.	.	.	.	.	.	.	.
.	.	(32qqdd/LLL	.	.	.	.	.	.	.	.	.	.	.	.	.
.	.	32qqee-/JJJ	.	.	.	.	.	.	.	.	.	.	.	.	.
8B-/	.	4ff\)	.	.	.	.	.	.	.	.	.	.	.	.	.
8F/	.	.	.	.	.	.	.	.	.	.	.	.	.	.	.
.	.	(32qqff/LLL	.	.	.	.	.	.	.	.	.	.	.	.	.
.	.	32qqgg/	.	.	.	.	.	.	.	.	.	.	.	.	.
.	.	32qqaa/JJJ	.	.	.	.	.	.	.	.	.	.	.	.	.
8D/	4BB-\	4bb-\)	.	.	.	.	.	.	.	.	.	.	4b-\	to	.
8F/J	.	.	.	.	.	.	.	.	.	.	.	.	.	.	.
!!LO:LB:g=original
=63	=63	=63	=63	=63	=63	=63	=63	=63	=63	=63	=63	=63	=63	=63	=63
8E-/L	2.BB-\	4r	.	2.r	.	.	2.r	.	.	2.r	.	.	(4b-/	jest	.
8F/	.	.	.	.	.	.	.	.	.	.	.	.	.	.	.
.	.	(32qqaa/LLL	.	.	.	.	.	.	.	.	.	.	.	.	.
.	.	32qqgg/JJJ	.	.	.	.	.	.	.	.	.	.	.	.	.
!	!	!	!	!	!	!	!	!	!	!	!	!	!	!	!LO:HP:a
8A/	.	4ff\)	.	.	.	.	.	.	.	.	.	.	4a/)	.	<
8F/	.	.	.	.	.	.	.	.	.	.	.	.	.	.	.
.	.	(32qqaa/LLL	.	.	.	.	.	.	.	.	.	.	.	.	.
.	.	32qqbb-/JJJ	.	.	.	.	.	.	.	.	.	.	.	.	.
8E-/	.	4ccc\)	.	.	.	.	.	.	.	.	.	.	8g/	pra-	.
8F/J	.	.	.	.	.	.	.	.	.	.	.	.	8f/	-wy	.
=64	=64	=64	=64	=64	=64	=64	=64	=64	=64	=64	=64	=64	=64	=64	=64
8D/L	2.BB-\	4r	.	2.r	.	.	2.r	.	.	2f/	Gdyż	mf	2dd\	Bóg	.
8F/	.	.	.	.	.	.	.	.	.	.	.	.	.	.	.
8B-/	.	4ddd 4dd\	.	.	.	.	.	.	.	.	.	.	.	.	.
8F/	.	.	.	.	.	.	.	.	.	.	.	.	.	.	.
8D/	.	4ddd 4dd\	.	.	.	.	.	.	.	4b-\	to	.	4dd\	li-	.
8F/J	.	.	.	.	.	.	.	.	.	.	.	.	.	.	.
=65	=65	=65	=65	=65	=65	=65	=65	=65	=65	=65	=65	=65	=65	=65	=65
8E-/L	2BB-\	4ddd 4dd\	.	2.r	.	.	2.r	.	.	4b-\	jest	.	(4dd\	-toś-	.
8F/	.	.	.	.	.	.	.	.	.	.	.	.	.	.	.
8B-/	.	4ccc 4cc\	.	.	.	.	.	.	.	4a\	li-	.	4cc\	.	.
8F/	.	.	.	.	.	.	.	.	.	.	.	.	.	.	.
8BB-/	4BB-\	8dddL 8dd\	.	.	.	.	.	.	.	8b-\	-toś-	.	8dd\)	.	.
8F/J	.	8eee-J 8ee-\	.	.	.	.	.	.	.	8cc\	-ci	.	8ee-\	-ci	.
*v	*v	*	*	*	*	*	*	*	*	*	*	*	*	*	*
=66	=66	=66	=66	=66	=66	=66	=66	=66	=66	=66	=66	=66	=66	=66
!	!	!	!	!	!LO:DY:a	!	!	!LO:DY:a	!	!	!LO:DY:a	!	!	!LO:DY:a
4D 4DD/	8fffL 8ff\	f	2B-\	Gdyż	f	2d\	Gdyż	f	2b-\	Bóg	f	2ff\	Bóg	f
.	8ff 8bn 8a\	.	.	.	.	.	.	.	.	.	.	.	.	.
2d 2D\	8ff 8b 8a\	.	.	.	.	.	.	.	.	.	.	.	.	.
.	8ff 8b 8a\	.	.	.	.	.	.	.	.	.	.	.	.	.
.	8ff#X 8b 8a\	.	4B-\	to	.	4d\	to	.	4b-\	ten	.	4ff#X\	ten	.
.	8ff#J 8b 8a\	.	.	.	.	.	.	.	.	.	.	.	.	.
=67	=67	=67	=67	=67	=67	=67	=67	=67	=67	=67	=67	=67	=67	=67
2e- 2E-\	8ggL 8b- 8g\	.	2E-\	Bóg	.	2e-\	Bóg	.	2ee-\	Bóg	.	2gg\	Bóg	.
.	8gg 8b- 8g\	.	.	.	.	.	.	.	.	.	.	.	.	.
.	8gg 8b- 8g\	.	.	.	.	.	.	.	.	.	.	.	.	.
.	8gg 8b- 8g\	.	.	.	.	.	.	.	.	.	.	.	.	.
4en 4En\	8cc 8b- 8g\	.	8E-\	co	.	8e-\	co	.	8g/	co	.	8ee-\	co	.
.	8ccJ 8b- 8g\	.	8E-\	się	.	8e-\	się	.	8g/	się	.	8ee-\	się	.
=68	=68	=68	=68	=68	=68	=68	=68	=68	=68	=68	=68	=68	=68	=68
4F 4FF/	8ddL 8b- 8f\	.	2.F\	dziś	.	2B-\	dziś	.	(4.f/	dziś	.	(2dd\	dziś	.
.	8dd 8b- 8f\	.	.	.	.	.	.	.	.	.	.	.	.	.
4f 4F\	8dd 8b- 8f\	.	.	.	.	.	.	.	.	.	.	.	.	.
.	8dd 8b- 8f\	.	.	.	.	.	.	.	8g/)	.	.	.	.	.
4B- 4BB-\	8dd 8b- 8f\	.	.	.	.	8e-\	nam	.	8a/	nam	.	8f/)	.	.
.	8ddJ 8b- 8f\	.	.	.	.	8d\	ob-	.	8b-/	ob-	.	8f/	ob-	.
!!LO:LB:g=original
=69	=69	=69	=69	=69	=69	=69	=69	=69	=69	=69	=69	=69	=69	=69
2F 2FF/	8ccL 8a 8f\	.	4F\	ob-	.	2.c\	-ja-	.	2.a/	-ja-	.	(4cc\	-ja-	.
.	8cc 8a 8f\	.	.	.	.	.	.	.	.	.	.	.	.	.
.	8ff 8a 8f\	.	2F\	-ja-	.	.	.	.	.	.	.	4ff\	.	.
.	8ff 8a 8f\	.	.	.	.	.	.	.	.	.	.	.	.	.
4F 4FF/	8ff 8a 8f\	.	.	.	.	.	.	.	.	.	.	8ee-\L	.	.
.	8ffJ 8a 8f\	.	.	.	.	.	.	.	.	.	.	8cc\J)	.	.
=70	=70	=70	=70	=70	=70	=70	=70	=70	=70	=70	=70	=70	=70	=70
4BB-/	4dd 4b- 4f/	f	2BB-/	-wia!	.	2B-/	-wia!	.	2b-\	-wia!	.	2b-\	-wia!	.
8d'\L	8dd'\L	.	.	.	.	.	.	.	.	.	.	.	.	.
8d'\	8dd'\	.	.	.	.	.	.	.	.	.	.	.	.	.
8d'\	8dd'\	.	4r	.	.	4r	.	.	4r	.	.	4r	.	.
8d'\J	8dd'\J	.	.	.	.	.	.	.	.	.	.	.	.	.
=71	=71	=71	=71	=71	=71	=71	=71	=71	=71	=71	=71	=71	=71	=71
4d 4D\	4dd\	.	2.r	.	.	2.r	.	.	2.r	.	.	2.r	.	.
(8c#XL 8A\	(8ggL 8a\	.	.	.	.	.	.	.	.	.	.	.	.	.
8d 8A\)	8ff#X 8a\)	.	.	.	.	.	.	.	.	.	.	.	.	.
8en 8A'\	8een 8a'\	.	.	.	.	.	.	.	.	.	.	.	.	.
8f#XJ 8A'\	8ddJ 8a'\	.	.	.	.	.	.	.	.	.	.	.	.	.
=72	=72	=72	=72	=72	=72	=72	=72	=72	=72	=72	=72	=72	=72	=72
4g 4A\	4cc#X 4a\	.	2.r	.	.	2.r	.	.	2.r	.	.	2.r	.	.
(8c#XL 8A\	(8ggL 8a\	.	.	.	.	.	.	.	.	.	.	.	.	.
8d\)	8ff#X 8a\)	.	.	.	.	.	.	.	.	.	.	.	.	.
8en'\	8een 8a'\	.	.	.	.	.	.	.	.	.	.	.	.	.
8f#X'\J	8ddJ 8a'\	.	.	.	.	.	.	.	.	.	.	.	.	.
=73	=73	=73	=73	=73	=73	=73	=73	=73	=73	=73	=73	=73	=73	=73
4g 4A\	4cc#X 4a\	.	2.r	.	.	2.r	.	.	2.r	.	.	2.r	.	.
(8c#X\L	(8gg\L	.	.	.	.	.	.	.	.	.	.	.	.	.
8d\)	8ff#X\)	.	.	.	.	.	.	.	.	.	.	.	.	.
8e-'\	8een'\	.	.	.	.	.	.	.	.	.	.	.	.	.
8f#X'\J	8ff#'\J	.	.	.	.	.	.	.	.	.	.	.	.	.
=74	=74	=74	=74	=74	=74	=74	=74	=74	=74	=74	=74	=74	=74	=74
*	*^	*	*	*	*	*	*	*	*	*	*	*	*	*
4f#X 4d\	4dd 4a^\	4ryy	.	2.r	.	.	2.r	.	.	2.r	.	.	2.r	.	.
8e-XL 8A 8Fn\	8ffn/L	8ccL 8fn\	.	.	.	.	.	.	.	.	.	.	.	.	.
8e- 8A 8F\	8ee-X/	8cc 8f\	.	.	.	.	.	.	.	.	.	.	.	.	.
!	!LO:TX:b:i:t=riten.	!	!	!	!	!	!	!	!	!	!	!	!	!	!
8e- 8A 8F\	8cc/	8f\	.	.	.	.	.	.	.	.	.	.	.	.	.
8e-J 8A 8F\	8dd/J	8f\J	.	.	.	.	.	.	.	.	.	.	.	.	.
!!LO:PB:g=original
*	*v	*v	*	*	*	*	*	*	*	*	*	*	*	*	*
=75	=75	=75	=75	=75	=75	=75	=75	=75	=75	=75	=75	=75	=75	=75
2.e- 2.A 2.F;\	2.cc 2.a 2.f;\	.	2.r;	.	.	2.r;	.	.	2.r;	.	.	2.r;	.	.
=76	=76	=76	=76	=76	=76	=76	=76	=76	=76	=76	=76	=76	=76	=76
!	!	!	!	!	!LO:DY:a	!	!	!LO:DY:a	!	!	!LO:DY:a	!	!	!LO:DY:a
4BB-/	8r	p	2B-\	Dziel-	p	2d\	Dziel-	p	2f/	Dziel-	p	2f/	Dziel-	p
.	(16ff\LL	.	.	.	.	.	.	.	.	.	.	.	.	.
.	16gg\JJ)	.	.	.	.	.	.	.	.	.	.	.	.	.
4d 4B- 4F\	8ff\L	.	.	.	.	.	.	.	.	.	.	.	.	.
.	8ff\	.	.	.	.	.	.	.	.	.	.	.	.	.
4d 4B- 4F\	8ddd\	.	4B-\	-ny	.	4d\	-ny	.	4f/	-ny	.	4b-\	-ny	.
.	8bb-\J	.	.	.	.	.	.	.	.	.	.	.	.	.
=77	=77	=77	=77	=77	=77	=77	=77	=77	=77	=77	=77	=77	=77	=77
4FF/	8r	.	2F\	le-	.	2c\	le-	.	2f/	le-	.	(4b-\	le-	.
.	(16ff\LL	.	.	.	.	.	.	.	.	.	.	.	.	.
.	16gg\JJ)	.	.	.	.	.	.	.	.	.	.	.	.	.
4e- 4c 4A 4F\	8ff'\L	.	.	.	.	.	.	.	.	.	.	4a\)	.	.
.	8ff'\	.	.	.	.	.	.	.	.	.	.	.	.	.
4e- 4c 4A 4F\	8gg'\	.	8F\	-chic-	.	8c\	-chic-	.	8e-/	-chic-	.	8g/	-chic-	.
.	8aa'\J	.	8F\	-ki	.	8B-\	-ki	.	8c/	-ki	.	8f/	-ki	.
=78	=78	=78	=78	=78	=78	=78	=78	=78	=78	=78	=78	=78	=78	=78
4BB-/	8bb-\L	.	[2.BB-^/	ród	.	[2.B-^\	ród	.	(2.f^/	ród	.	(2.dd^\	ród	.
.	8dd\	.	.	.	.	.	.	.	.	.	.	.	.	.
4d 4B- 4F\	8bb-\	.	.	.	.	.	.	.	.	.	.	.	.	.
.	8ff\	.	.	.	.	.	.	.	.	.	.	.	.	.
4d 4B- 4F\	8ddd\	.	.	.	.	.	.	.	.	.	.	.	.	.
.	8bb-\J	.	.	.	.	.	.	.	.	.	.	.	.	.
=79	=79	=79	=79	=79	=79	=79	=79	=79	=79	=79	=79	=79	=79	=79
4BB-/	8ff\L	.	2BB-/]	.	.	2B-\]	.	.	2d/)	.	.	2b-\)	.	.
.	8dd\	.	.	.	.	.	.	.	.	.	.	.	.	.
4f 4d 4B-\	8ddd\	.	.	.	.	.	.	.	.	.	.	.	.	.
.	8ccc\	.	.	.	.	.	.	.	.	.	.	.	.	.
4g 4e- 4B-^\	8bb-\	.	4r	.	.	4r	.	.	4r	.	.	4r	.	.
.	8gg\J	.	.	.	.	.	.	.	.	.	.	.	.	.
=80	=80	=80	=80	=80	=80	=80	=80	=80	=80	=80	=80	=80	=80	=80
4BB-/	(8ff\L	.	2B-\	Już	.	2d\	Już	.	2f/	Już	.	2f/	Już	.
.	16ff\L	.	.	.	.	.	.	.	.	.	.	.	.	.
.	16gg\JJ)	.	.	.	.	.	.	.	.	.	.	.	.	.
4d 4B- 4F\	8ff\L	.	.	.	.	.	.	.	.	.	.	.	.	.
.	(8ff\	.	.	.	.	.	.	.	.	.	.	.	.	.
4d 4B- 4F\	8ddd\)	.	4B-\	wziął	.	4d\	wziął	.	4f/	wziął	.	4b-\	wziął	.
.	8bb-\J	.	.	.	.	.	.	.	.	.	.	.	.	.
!!LO:LB:g=original
=81	=81	=81	=81	=81	=81	=81	=81	=81	=81	=81	=81	=81	=81	=81
4BB-/	8ff\L	.	2F^\	od	.	2c^\	od	.	2f^/	od	.	(4b-^\	od	.
.	(16f\L	.	.	.	.	.	.	.	.	.	.	.	.	.
.	16g\JJ	.	.	.	.	.	.	.	.	.	.	.	.	.
4e- 4c 4F\	16a\LL	.	.	.	.	.	.	.	.	.	.	4a/)	.	.
.	16b-\	.	.	.	.	.	.	.	.	.	.	.	.	.
.	16cc\	.	.	.	.	.	.	.	.	.	.	.	.	.
.	16dd\JJ	.	.	.	.	.	.	.	.	.	.	.	.	.
4e- 4c 4F\	16ee-\LL	.	8F\	nie-	.	8B-/	nie-	.	8c/	nie-	.	8g/	nie-	.
.	16ff\	.	.	.	.	.	.	.	.	.	.	.	.	.
.	16gg\	.	8F\	-go	.	8A/	-go	.	8c/	-go	.	8f/	-go	.
.	16aa\JJ)	.	.	.	.	.	.	.	.	.	.	.	.	.
=82	=82	=82	=82	=82	=82	=82	=82	=82	=82	=82	=82	=82	=82	=82
4C/	8bb-\L	f	(2.C^\	chrzest	.	(2.c^\	chrzest	.	(2.e-^/	chrzest	.	(2.g^/	chrzest	.
.	8aa\	.	.	.	.	.	.	.	.	.	.	.	.	.
4en 4c 4B-\	8bb-\	.	.	.	.	.	.	.	.	.	.	.	.	.
.	8gg\	.	.	.	.	.	.	.	.	.	.	.	.	.
4e 4c 4B-\	8ccc\	.	.	.	.	.	.	.	.	.	.	.	.	.
.	8bb-\J	.	.	.	.	.	.	.	.	.	.	.	.	.
=83	=83	=83	=83	=83	=83	=83	=83	=83	=83	=83	=83	=83	=83	=83
4F\	(8aa\L	.	2F\)	.	.	2A/)	.	.	2f/)	.	.	2f/)	.	.
.	8fff\	.	.	.	.	.	.	.	.	.	.	.	.	.
4f 4c 4A\	8eeen\	.	.	.	.	.	.	.	.	.	.	.	.	.
.	8eee-X\	.	.	.	.	.	.	.	.	.	.	.	.	.
4r	8ccc\	.	4r	.	.	4r	.	.	4r	.	.	4r	.	.
.	8aa\J)	.	.	.	.	.	.	.	.	.	.	.	.	.
=84	=84	=84	=84	=84	=84	=84	=84	=84	=84	=84	=84	=84	=84	=84
4BB-/	8ff\L	.	2B-\	Tam	.	2d\	Tam	.	2f/	Tam	.	2f/	Tam	.
.	(16ff\L	.	.	.	.	.	.	.	.	.	.	.	.	.
.	16gg\JJ)	.	.	.	.	.	.	.	.	.	.	.	.	.
(32qqD/LLL	.	.	.	.	.	.	.	.	.	.	.	.	.	.
32qqE-/JJJ	.	.	.	.	.	.	.	.	.	.	.	.	.	.
4F\)	8ff'\L	.	.	.	.	.	.	.	.	.	.	.	.	.
.	8ff'\	.	.	.	.	.	.	.	.	.	.	.	.	.
4r	8ddd\	.	4B-\	pas-	.	4d\	pas-	.	4f/	pas-	.	4b-\	pas-	.
.	8bb-\J	.	.	.	.	.	.	.	.	.	.	.	.	.
=85	=85	=85	=85	=85	=85	=85	=85	=85	=85	=85	=85	=85	=85	=85
4BB-/	8ff\L	.	2F\	-terz	.	2c\	-terz	.	2e-X/	-terz	.	(4b-\	-terz	.
.	(16ff\L	.	.	.	.	.	.	.	.	.	.	.	.	.
.	16gg\JJ)	.	.	.	.	.	.	.	.	.	.	.	.	.
(32qqC/LLL	.	.	.	.	.	.	.	.	.	.	.	.	.	.
32qqE-/JJJ	.	.	.	.	.	.	.	.	.	.	.	.	.	.
!	!	!	!	!	!	!	!	!	!	!	!	!	!	!LO:HP:a
4F\)	8ff'\L	.	.	.	.	.	.	.	.	.	.	4a\)	.	<
.	8ff'\	.	.	.	.	.	.	.	.	.	.	.	.	.
!	!	!	!	!	!LO:HP:a	!	!	!LO:HP:a	!	!	!LO:HP:a	!	!	!
4r	8gg'\	.	8F\	wier-	<	8c\	wier-	<	8e-/	wier-	<	8b-\	wier-	.
.	8aa'\J	.	8F\	-nych	[	8A\	-nych	[	8c/	-nych	[	8cc\	-nych	[
=86	=86	=86	=86	=86	=86	=86	=86	=86	=86	=86	=86	=86	=86	=86
!	!	!	!	!	!LO:DY:a	!	!	!LO:DY:a	!	!	!LO:DY:a	!	!	!LO:DY:a
4BB-/	8bb-\L	.	2BB-/	trzód	f	[2.d\	trzód	f	2.f/	trzód	f	2.dd\	trzód	f
.	8dd\	.	.	.	.	.	.	.	.	.	.	.	.	.
(32qqD/LLL	.	.	.	.	.	.	.	.	.	.	.	.	.	.
32qqE-/JJJ	.	.	.	.	.	.	.	.	.	.	.	.	.	.
4F\)	8bb-\	.	.	.	.	.	.	.	.	.	.	.	.	.
.	8ff\	.	.	.	.	.	.	.	.	.	.	.	.	.
4r	8ddd\	.	4B-\	nad	.	.	.	.	.	.	.	.	.	.
.	8bb-\J	.	.	.	.	.	.	.	.	.	.	.	.	.
!!LO:LB:g=original
=87	=87	=87	=87	=87	=87	=87	=87	=87	=87	=87	=87	=87	=87	=87
!	!	!	!	!	!	!	!	!	!	!	!LO:HP:a:Bi:t=decr.	!	!	!LO:HP:a:Bi:t=decr.
4BBn\	8dddL 8dd\	.	2Bn^\	kró-	.	4d\]	.	.	4f/	nad	>	4dd\	nad	>
.	8gg\	.	.	.	.	.	.	.	.	.	.	.	.	.
32qqD/LLL	.	.	.	.	.	.	.	.	.	.	.	.	.	.
32qqE-/JJJ	.	.	.	.	.	.	.	.	.	.	.	.	.	.
4F\	8ff#X\	.	.	.	.	4d\	wier-	.	4f/	kró-	.	4g/	kró-	.
.	8gg\	.	.	.	.	.	.	.	.	.	.	.	.	.
4r	8aa-X\	.	4B\	-le	.	4d\	-nych	.	4f/	-le	.	4g/	-le	.
.	8gg\J	.	.	.	.	.	.	.	.	.	.	.	.	.
=88	=88	=88	=88	=88	=88	=88	=88	=88	=88	=88	=88	=88	=88	=88
*^	*^	*	*	*	*	*	*	*	*	*	*	*	*	*
8C/L	2C\	2gg/	4ff\	.	2c\	wyż-	.	2c\	trzód	.	(4f/	wyż-	.	2g/	wyż-	.
8G/	.	.	.	.	.	.	.	.	.	.	.	.	.	.	.	.
8c/	.	.	4een\	.	.	.	.	.	.	.	4en/)	.	.	.	.	.
8G/	.	.	.	.	.	.	.	.	.	.	.	.	.	.	.	.
8BB-/	4BB-\	4ccc/	4ee 4cc\	.	4B-X\	-szym	.	4r	.	.	4cc\	-szym	.	4en/	-szym	.
8G/J	.	.	.	.	.	.	.	.	.	.	.	.	.	.	.	.
*v	*v	*	*	*	*	*	*	*	*	*	*	*	*	*	*	*
=89	=89	=89	=89	=89	=89	=89	=89	=89	=89	=89	=89	=89	=89	=89	=89
4AA\	4ccc/	(8cc\L	.	2A\	jest	.	4r	.	.	(4cc\	jest	.	4f/	jest	.
.	.	8ff\	.	.	.	.	.	.	.	.	.	.	.	.	.
32qqD/LLL	.	.	.	.	.	.	.	.	.	.	.	.	.	.	.
32qqA/JJJ	.	.	.	.	.	.	.	.	.	.	.	.	.	.	.
4c\	2ryy	8een\	.	.	.	.	4c\	wier-	.	4f/)	.	.	4r	.	.
.	.	8ff\	.	.	.	.	.	.	.	.	.	.	.	.	.
4r	.	8gg\	.	4r	.	.	4A\	-nych	.	4e-X/	nad	.	4f/	nad	.
.	.	8ff\J)	.	.	.	.	.	.	.	.	.	.	.	.	.
*	*v	*v	*	*	*	*	*	*	*	*	*	*	*	*	*
=90	=90	=90	=90	=90	=90	=90	=90	=90	=90	=90	=90	=90	=90	=90
*^	*	*	*	*	*	*	*	*	*	*	*	*	*	*
!	!	!	!	!	!	!	!	!	!	!	!	!	!	!	!LO:HP:a
8D/L	2BB-\	(4dd\	.	2BB-/	I	.	2B-\	trzód	.	4e-/	kró-	.	4f/	kró-	<
8F/	.	.	.	.	.	.	.	.	.	.	.	.	.	.	.
8B-/	.	4bb- 4b-\	<	.	.	.	.	.	.	4d/	-le	.	4b-/	-lem	.
8F/	.	.	.	.	.	.	.	.	.	.	.	.	.	.	.
8D/	4D\	4aa 4a\)	.	4D/	nad	.	4f\	nad	.	4r	.	.	4a/	nad	[
8F/J	.	.	.	.	.	.	.	.	.	.	.	.	.	.	.
=91	=91	=91	=91	=91	=91	=91	=91	=91	=91	=91	=91	=91	=91	=91	=91
8E-/L	2E-\	4gg 4g\	.	2E-\	kró-	.	2B-\	kró-	.	[2g/	wyż-	.	(4g/	kró-	.
8G/	.	.	.	.	.	.	.	.	.	.	.	.	.	.	.
8c/	.	4ddd 4dd\	.	.	.	.	.	.	.	.	.	.	4dd\)	.	.
8G/	.	.	.	.	.	.	.	.	.	.	.	.	.	.	.
8En/	4E\	4ccc 4cc\	.	4En\	-le	.	4c\	-le	.	4g/]	.	.	4cc\	-lem	.
8G/J	.	.	.	.	.	.	.	.	.	.	.	.	.	.	.
=92	=92	=92	=92	=92	=92	=92	=92	=92	=92	=92	=92	=92	=92	=92	=92
8F/L	2F\	4bb- 4ff 4dd\	.	2F\	wyż-	.	2d\	wyż-	.	2.f/	-szym	.	4b-\	wyż-	.
8B-/	.	.	.	.	.	.	.	.	.	.	.	.	.	.	.
.	.	(8qccc/	.	.	.	.	.	.	.	.	.	.	(<8qcc/	.	.
8d/	.	8bb-\L)	.	.	.	.	.	.	.	.	.	.	8b-\L)	.	.
8B-/	.	8aa\	.	.	.	.	.	.	.	.	.	.	8a\J	.	.
8F/	4F\	8bb-\	.	4F\	-szym	.	8d\	-szym-	.	.	.	.	8b-\L	szym	.
8B-/J	.	8ccc\J	.	.	.	.	8e-\	.	.	.	.	.	8cc\J	.	.
!!LO:PB:g=original
*v	*v	*	*	*	*	*	*	*	*	*	*	*	*	*	*
=93	=93	=93	=93	=93	=93	=93	=93	=93	=93	=93	=93	=93	=93	=93
4c 4F\	(8aaL 8cc\	.	2F\	jest	.	2c\	-jest	.	2f/	jest	.	2a/	jest	.
.	8ff\	.	.	.	.	.	.	.	.	.	.	.	.	.
4r	8een\	.	.	.	.	.	.	.	.	.	.	.	.	.
.	8ff\	.	.	.	.	.	.	.	.	.	.	.	.	.
.	8qaa/	.	.	.	.	.	.	.	.	.	.	.	.	.
4r	8gg\	.	4r	.	.	4r	.	.	4r	.	.	4r	.	.
.	8ff\J)	.	.	.	.	.	.	.	.	.	.	.	.	.
=94	=94	=94	=94	=94	=94	=94	=94	=94	=94	=94	=94	=94	=94	=94
*^	*	*	*	*	*	*	*	*	*	*	*	*	*	*
8D/L	2BB-\	2.ffTT\	f	2B-\	On	.	2d\	On	.	4r	.	.	2f/	On	.
8F/	.	.	.	.	.	.	.	.	.	.	.	.	.	.	.
8B-/	.	.	.	.	.	.	.	.	.	4r	.	.	.	.	.
8F/	.	.	.	.	.	.	.	.	.	.	.	.	.	.	.
8D/	4BB-\	.	.	4B-\	sam	.	4d\	sam	.	4f/	sam	.	4b-\	sam	.
8F/J	.	.	.	.	.	.	.	.	.	.	.	.	.	.	.
=95	=95	=95	=95	=95	=95	=95	=95	=95	=95	=95	=95	=95	=95	=95	=95
8E-/L	2.BB-\	2.ffTTT\	.	2F\	ten	.	2c\	ten	.	2e-/	ten	.	(4b-\	ten	.
8F/	.	.	.	.	.	.	.	.	.	.	.	.	.	.	.
8A/	.	.	.	.	.	.	.	.	.	.	.	.	4a\)	.	.
8F/	.	.	.	.	.	.	.	.	.	.	.	.	.	.	.
8E-/	.	.	.	8G\	pra-	.	8c\	pra-	.	8e-/	pra-	.	8b-\	pra-	.
8F/J	.	.	.	8A\	-wy	.	8c\	-wy	.	8e-/	-wy	.	8cc\	-wy	.
=96	=96	=96	=96	=96	=96	=96	=96	=96	=96	=96	=96	=96	=96	=96	=96
8D/L	2.BB-\	4ffTTT\	.	2.B-\	Bóg	.	2.B-\	Bóg	.	2.d/	Bóg	.	2.dd\	Bóg	.
8F/	.	.	.	.	.	.	.	.	.	.	.	.	.	.	.
8B-/	.	4fff 4ff\	.	.	.	.	.	.	.	.	.	.	.	.	.
8F/	.	.	.	.	.	.	.	.	.	.	.	.	.	.	.
8D/	.	4fff 4ff\	.	.	.	.	.	.	.	.	.	.	.	.	.
8F/J	.	.	.	.	.	.	.	.	.	.	.	.	.	.	.
=97	=97	=97	=97	=97	=97	=97	=97	=97	=97	=97	=97	=97	=97	=97	=97
!LO:N:vis=2	!	!	!	!	!	!	!	!	!	!	!	!	!	!	!
8E-/L	2E-\	4fff 4ff\	.	4E-\	Z Woj-	.	4c\	Z Woj-	.	(4.g/	Z Woj-	.	4dd\	Z Woj-	.
8G/	.	.	.	.	.	.	.	.	.	.	.	.	.	.	.
8c/	.	8cccL 8cc\	.	4E-\	-cie-	.	4c\	-cie-	.	.	.	.	4cc\	-cie-	.
8G/	.	8bb-\	.	.	.	.	.	.	.	8b-/)	.	.	.	.	.
8E-/	4ryy	8aa\	.	4E-\	-cha	.	4c\	-cha	.	8a/	-cie-	.	4cc\	-cha	.
8G/J	.	8gg\J	.	.	.	.	.	.	.	8g/	-cha	.	.	.	.
=98	=98	=98	=98	=98	=98	=98	=98	=98	=98	=98	=98	=98	=98	=98	=98
!	!LO:TX:a:t=P:problem:note position	!	!	!	!	!	!	!	!	!	!	!	!	!	!
8F/L	2F\	4ccc [4ff [4dd^\	.	2F\	ust	.	(4.d\	ust	.	(4.f/	ust	.	(4cc\	ust	.
8B-/	.	.	.	.	.	.	.	.	.	.	.	.	.	.	.
8d/	.	(8bb-L 8ff] 8dd\]	.	.	.	.	.	.	.	.	.	.	4b-\)	.	.
8B-/	.	8aa\	.	.	.	.	8f\	.	.	8a/	.	.	.	.	.
8F/	4F\	8gg\	.	4F\	prze-	.	8e-\L)	prze-	.	8g/L)	prze-	.	4b-\	prze-	.
8B-/J	.	8ff\J)	.	.	.	.	8d\J	.	.	8f/J	.	.	.	.	.
!!LO:LB:g=original
*v	*v	*	*	*	*	*	*	*	*	*	*	*	*	*	*
=99	=99	=99	=99	=99	=99	=99	=99	=99	=99	=99	=99	=99	=99	=99
*	*^	*	*	*	*	*	*	*	*	*	*	*	*	*
2.e- 2.A 2.F\	2fff/	(8ff\L	f	2.F\	-ma-	.	(4.c\	-ma-	.	2.ff\	-ma-	.	(4a\	-ma-	.
.	.	8aa\	.	.	.	.	.	.	.	.	.	.	.	.	.
.	.	8ccc\	.	.	.	.	.	.	.	.	.	.	8b-\L	.	.
.	.	8eee-\	.	.	.	.	8c\L	.	.	.	.	.	8ee-\	.	.
.	4ryy	8ddd\	.	.	.	.	8d\	.	.	.	.	.	8dd\	.	.
.	.	8ccc\J)	.	.	.	.	8e-\J)	.	.	.	.	.	8cc\J)	.	.
=100	=100	=100	=100	=100	=100	=100	=100	=100	=100	=100	=100	=100	=100	=100	=100
*^	*	*	*	*	*	*	*	*	*	*	*	*	*	*	*
4d/	4B-\	4ryy	4bb-\	.	2BB-/	-wia	.	2d\	-wia	.	2f/	-wia	.	2b-\	-wia	.
2B-/	8BB-\L	2bb-/	(8dd\L	.	.	.	.	.	.	.	.	.	.	.	.	.
.	8D\	.	8ff\	.	.	.	.	.	.	.	.	.	.	.	.	.
.	8E-\	.	8ee-\	.	4r	.	.	4r	.	.	4r	.	.	4r	.	.
.	8En\J	.	8dd\J)	.	.	.	.	.	.	.	.	.	.	.	.	.
*v	*v	*	*	*	*	*	*	*	*	*	*	*	*	*	*	*
=101	=101	=101	=101	=101	=101	=101	=101	=101	=101	=101	=101	=101	=101	=101	=101
4F\	(8aa/L	8cc\L	.	2.r	.	.	2.r	.	.	2.r	.	.	2.r	.	.
.	8gg/	8ee-\	.	.	.	.	.	.	.	.	.	.	.	.	.
4FF/	8ff/	8a\	.	.	.	.	.	.	.	.	.	.	.	.	.
.	8ee-/	8cc\	.	.	.	.	.	.	.	.	.	.	.	.	.
4F\	8dd/	8f\	.	.	.	.	.	.	.	.	.	.	.	.	.
.	8cc/J)	8a\J	.	.	.	.	.	.	.	.	.	.	.	.	.
*	*v	*v	*	*	*	*	*	*	*	*	*	*	*	*	*
=102	=102	=102	=102	=102	=102	=102	=102	=102	=102	=102	=102	=102	=102	=102
!	!	!	!	!	!	!	!	!	!	!	!	!	!	!LO:DY:a
16BB-\LL	2ff 2f\	.	2.r	.	.	2.r	.	.	2.r	.	.	2f/	Nieś-	f
16D\	.	.	.	.	.	.	.	.	.	.	.	.	.	.
16F\	.	.	.	.	.	.	.	.	.	.	.	.	.	.
16B-\JJ	.	.	.	.	.	.	.	.	.	.	.	.	.	.
16F\LL	.	.	.	.	.	.	.	.	.	.	.	.	.	.
16B-\	.	.	.	.	.	.	.	.	.	.	.	.	.	.
16F\	.	.	.	.	.	.	.	.	.	.	.	.	.	.
16D\JJ	.	.	.	.	.	.	.	.	.	.	.	.	.	.
16BB-\LL	4bb- 4b-\	.	.	.	.	.	.	.	.	.	.	4b-/	-my	.
16D\	.	.	.	.	.	.	.	.	.	.	.	.	.	.
16F\	.	.	.	.	.	.	.	.	.	.	.	.	.	.
16B-\JJ	.	.	.	.	.	.	.	.	.	.	.	.	.	.
=103	=103	=103	=103	=103	=103	=103	=103	=103	=103	=103	=103	=103	=103	=103
16BB-\LL	4bb- 4b-^\	.	2.r	.	.	2.r	.	.	2.r	.	.	(4b-\	hołd	.
16E-\	.	.	.	.	.	.	.	.	.	.	.	.	.	.
16F\	.	.	.	.	.	.	.	.	.	.	.	.	.	.
16A\JJ	.	.	.	.	.	.	.	.	.	.	.	.	.	.
16F\LL	4aa 4a\	.	.	.	.	.	.	.	.	.	.	4a\)	.	.
16A\	.	.	.	.	.	.	.	.	.	.	.	.	.	.
16F\	.	.	.	.	.	.	.	.	.	.	.	.	.	.
16E-\JJ	.	.	.	.	.	.	.	.	.	.	.	.	.	.
16BB-\LL	8bb-L 8b-\	.	.	.	.	.	.	.	.	.	.	8b-\	ja-	.
16E-\	.	.	.	.	.	.	.	.	.	.	.	.	.	.
16F\	8cccJ 8cc\	.	.	.	.	.	.	.	.	.	.	8cc\	-ko	.
16A\JJ	.	.	.	.	.	.	.	.	.	.	.	.	.	.
!!LO:LB:g=original
=104	=104	=104	=104	=104	=104	=104	=104	=104	=104	=104	=104	=104	=104	=104
!	!	!	!	!	!	!	!	!LO:DY:a	!	!	!	!	!	!LO:DY:a
16BB-\LL	2ddd 2dd\	.	2.r	.	.	2F/	Nieś-	f	2.r	.	.	2dd\	dług	f
16D\	.	.	.	.	.	.	.	.	.	.	.	.	.	.
16F\	.	.	.	.	.	.	.	.	.	.	.	.	.	.
16B-\JJ	.	.	.	.	.	.	.	.	.	.	.	.	.	.
16F\LL	.	.	.	.	.	.	.	.	.	.	.	.	.	.
16B-\	.	.	.	.	.	.	.	.	.	.	.	.	.	.
16F\	.	.	.	.	.	.	.	.	.	.	.	.	.	.
16D\JJ	.	.	.	.	.	.	.	.	.	.	.	.	.	.
16BB-\LL	4ddd 4dd\	.	.	.	.	4B-\	-my	.	.	.	.	4dd\	Świę-	.
16D\	.	.	.	.	.	.	.	.	.	.	.	.	.	.
16F\	.	.	.	.	.	.	.	.	.	.	.	.	.	.
16B-\JJ	.	.	.	.	.	.	.	.	.	.	.	.	.	.
=105	=105	=105	=105	=105	=105	=105	=105	=105	=105	=105	=105	=105	=105	=105
16BB-\LL	4ddd 4ff\	.	2.r	.	.	(4B-\	Hołd	.	2f/	Nieś-	.	4dd\	-te-	.
16E-\	.	.	.	.	.	.	.	.	.	.	.	.	.	.
16F\	.	.	.	.	.	.	.	.	.	.	.	.	.	.
16A\JJ	.	.	.	.	.	.	.	.	.	.	.	.	.	.
16F\LL	4ccc 4aa 4dd\	.	.	.	.	4A\)	.	.	.	.	.	4cc\	-mu	.
16A\	.	.	.	.	.	.	.	.	.	.	.	.	.	.
16F\	.	.	.	.	.	.	.	.	.	.	.	.	.	.
16E-\JJ	.	.	.	.	.	.	.	.	.	.	.	.	.	.
16BB-\LL	8dddL 8ff\	.	.	.	.	8B-\	ja-	.	4f/	-my	.	8dd\	co	.
16E-\	.	.	.	.	.	.	.	.	.	.	.	.	.	.
16F\	8eee-J 8ff\	.	.	.	.	8c\	-ko	.	.	.	.	8ee-\	nas	.
16A\JJ	.	.	.	.	.	.	.	.	.	.	.	.	.	.
=106	=106	=106	=106	=106	=106	=106	=106	=106	=106	=106	=106	=106	=106	=106
!	!	!	!	!	!LO:DY:a	!	!	!	!	!	!	!	!	!
16BB-\LL	2fff 2ddd 2ff\	<	2F\	Nieś-	f	2d\	dług	.	2f/	Hołd	.	2.ff\	zba-	.
16D\	.	.	.	.	.	.	.	.	.	.	.	.	.	.
16F\	.	.	.	.	.	.	.	.	.	.	.	.	.	.
16B-\JJ	.	.	.	.	.	.	.	.	.	.	.	.	.	.
16F\LL	.	.	.	.	.	.	.	.	.	.	.	.	.	.
16B-\	.	.	.	.	.	.	.	.	.	.	.	.	.	.
16F\	.	.	.	.	.	.	.	.	.	.	.	.	.	.
16D\JJ	.	.	.	.	.	.	.	.	.	.	.	.	.	.
16BB-\LL	4fff 4ddd 4ff\	.	4B-\	-my	.	8d\	Świę-	.	8f/	ja-	.	.	.	.
16D\	.	.	.	.	.	.	.	.	.	.	.	.	.	.
16F\	.	.	.	.	.	8e-\	.	.	8g/	-ko	.	.	.	.
16B-\JJ	.	.	.	.	.	.	.	.	.	.	.	.	.	.
=107	=107	=107	=107	=107	=107	=107	=107	=107	=107	=107	=107	=107	=107	=107
*	*8va	*	*	*	*	*	*	*	*	*	*	*	*	*
*	*^	*	*	*	*	*	*	*	*	*	*	*	*	*
16BB-\LL	2fff 2ddd/	4ff\	.	(4B-\	Hołd	.	4d\	-te-	.	2f/	dług	.	[2ff\	-wia!	.
16E-\	.	.	.	.	.	.	.	.	.	.	.	.	.	.	.
16F\	.	.	.	.	.	.	.	.	.	.	.	.	.	.	.
16A\JJ	.	.	.	.	.	.	.	.	.	.	.	.	.	.	.
16F\LL	.	4ccc 4ff\	.	4A\)	.	.	4c\	-mu	.	.	.	.	.	.	.
16A\	.	.	.	.	.	.	.	.	.	.	.	.	.	.	.
16F\	.	.	.	.	.	.	.	.	.	.	.	.	.	.	.
16E-\JJ	.	.	.	.	.	.	.	.	.	.	.	.	.	.	.
16BB-\LL	8fff/L	8dddL 8ff\	.	8B-\	ja-	.	8d\	co	.	8f/	ja-	.	8ff\]	.	.
16E-\	.	.	.	.	.	.	.	.	.	.	.	.	.	.	.
16F\	8fff/J	8cccJ 8ff\	.	8c\	-ko	.	8e-\	nas	.	8f/	-ko	.	8ff\	Niech	.
16A\JJ	.	.	.	.	.	.	.	.	.	.	.	.	.	.	.
*	*v	*v	*	*	*	*	*	*	*	*	*	*	*	*	*
=108	=108	=108	=108	=108	=108	=108	=108	=108	=108	=108	=108	=108	=108	=108
*tremolo	*	*	*	*	*	*	*	*	*	*	*	*	*	*
16BB-LL 16DD/	16fffLL 16bb-\	ff	2d\	dług	.	2f\	zba-	.	2b-/	dług	.	2ff\	wszel-	.
16D/	16ff\	.	.	.	.	.	.	.	.	.	.	.	.	.
16BB- 16DD/	16fff 16bb-\	.	.	.	.	.	.	.	.	.	.	.	.	.
16D/	16ff\	.	.	.	.	.	.	.	.	.	.	.	.	.
16BB- 16DD/	16fff 16bb-\	.	.	.	.	.	.	.	.	.	.	.	.	.
16D/	16ff\	.	.	.	.	.	.	.	.	.	.	.	.	.
16BB- 16DD/	16fff 16bb-\	.	.	.	.	.	.	.	.	.	.	.	.	.
16D/	16ff\	.	.	.	.	.	.	.	.	.	.	.	.	.
16BB- 16DD/	16fff 16bb-\	.	4D\	Świę-	.	4B-\	-wia.	.	4f/	Świę-	.	4ff\	-ki	.
16D/	16ff\	.	.	.	.	.	.	.	.	.	.	.	.	.
16BB- 16DD/	16fff 16bb-\	.	.	.	.	.	.	.	.	.	.	.	.	.
16D/JJ	16ff\JJ	.	.	.	.	.	.	.	.	.	.	.	.	.
*Xtremolo	*	*	*	*	*	*	*	*	*	*	*	*	*	*
*	*X8va	*	*	*	*	*	*	*	*	*	*	*	*	*
!!LO:PB:g=original
=109	=109	=109	=109	=109	=109	=109	=109	=109	=109	=109	=109	=109	=109	=109
16EE-/LL	16ggLL 16b-\	sf	2E-\	-te-	.	2B-\	Nie-	.	2g/	-te-	.	2gg\	ży-	.
16E-/	16g\	.	.	.	.	.	.	.	.	.	.	.	.	.
16EE-/	16gg 16b-\	.	.	.	.	.	.	.	.	.	.	.	.	.
16E-/JJ	16g\JJ	.	.	.	.	.	.	.	.	.	.	.	.	.
16EE-/LL	16ggLL 16b-\	.	.	.	.	.	.	.	.	.	.	.	.	.
16E-/	16g\	.	.	.	.	.	.	.	.	.	.	.	.	.
16EE-/	16gg 16b-\	.	.	.	.	.	.	.	.	.	.	.	.	.
16E-/JJ	16g\JJ	.	.	.	.	.	.	.	.	.	.	.	.	.
16EE-/LL	16ee-LL 16cc\	.	4E-\	-mu	.	4c\	-chaj	.	4g/	-mu	.	4ee-\	-wioł	.
16E-/	16g\	.	.	.	.	.	.	.	.	.	.	.	.	.
16EE-/	16ee- 16cc\	.	.	.	.	.	.	.	.	.	.	.	.	.
16E-/JJ	16g\JJ	.	.	.	.	.	.	.	.	.	.	.	.	.
=110	=110	=110	=110	=110	=110	=110	=110	=110	=110	=110	=110	=110	=110	=110
16FF/LL	16ddLL 16b-\	.	4F\	co	.	4d\	świat	.	4f/	co	.	4dd\	moc	.
16F/	16f\	.	.	.	.	.	.	.	.	.	.	.	.	.
16FF/	16dd 16b-\	.	.	.	.	.	.	.	.	.	.	.	.	.
16F/JJ	16f\JJ	.	.	.	.	.	.	.	.	.	.	.	.	.
16FF/LL	16ddLL 16b-\	.	4F\	je-	.	4d\	je-	.	4b-\	je-	.	4dd\	je-	.
16F/	16f\	.	.	.	.	.	.	.	.	.	.	.	.	.
16FF/	16dd 16b-\	.	.	.	.	.	.	.	.	.	.	.	.	.
16F/JJ	16f\JJ	.	.	.	.	.	.	.	.	.	.	.	.	.
16FF/LL	16ddLL 16b-\	.	4F\	-go	.	4d\	-go	.	4b-\	-go	.	4dd\	-go	.
16F/	16f\	.	.	.	.	.	.	.	.	.	.	.	.	.
16FF/	16dd 16b-\	.	.	.	.	.	.	.	.	.	.	.	.	.
16F/JJ	16f\JJ	.	.	.	.	.	.	.	.	.	.	.	.	.
=111	=111	=111	=111	=111	=111	=111	=111	=111	=111	=111	=111	=111	=111	=111
16FF/LL	16ccLL 16a\	.	2F\	moc	.	2e-\	moc	.	2a\	moc	.	(4cc\	moc	.
16F/	16f\	.	.	.	.	.	.	.	.	.	.	.	.	.
16FF/	16cc 16a\	.	.	.	.	.	.	.	.	.	.	.	.	.
16F/JJ	16f\JJ	.	.	.	.	.	.	.	.	.	.	.	.	.
8FF/	8ccL 8a\	.	.	.	.	.	.	.	.	.	.	8cc\L	.	.
8e-L 8c 8F\	8ff 8a 8f^\	.	.	.	.	.	.	.	.	.	.	8ff\J)	.	.
8e- 8c 8F\	8ee- 8a 8f^\	.	4F\	wy-	.	4e-\	wy-	.	4a\	wy-	.	(8ee-\L	wy-	.
8e-J 8c 8F\	8ddJ 8a 8f^\	.	.	.	.	.	.	.	.	.	.	8cc\J)	.	.
=112	=112	=112	=112	=112	=112	=112	=112	=112	=112	=112	=112	=112	=112	=112
4d 4B-\	4b- 4f 4d/	.	4B-\	-sła-	.	4d\	-sła-	.	4b-\	-sła-	.	4b-\	-sła-	.
8BB-\L	8b-L 8f 8d/	f	(8BB-/L	-wia	.	4d\	-wia;	.	4f/	-wia;	.	(8b-\L	-wia;	.
8D\	8dd 8d^/	>	8D/J)	.	.	.	.	.	.	.	.	8dd\J)	.	.
8E-\	8cc 8c^/	.	(8E-\L	niech	.	4r	.	.	4r	.	.	(8cc\L	niech	.
8En\J	8b-J 8g 8c^/	]	8En\J)	.	.	.	.	.	.	.	.	8b-\J)	.	.
=113	=113	=113	=113	=113	=113	=113	=113	=113	=113	=113	=113	=113	=113	=113
4F\	4ff 4a 4f^/	.	2F\	wszel-	.	4c\	niech	.	4a\	niech	.	2ff^\	wszel-	.
8AL 8F\	8ccL 8f^/	.	.	.	.	8A\	wszel-	.	(8cc\L	wszel-	.	.	.	.
8c 8F\	8ee- 8f^/	.	.	.	.	8c\	-ki	.	8ee-\J)	.	.	.	.	.
8B- 8F\	8dd 8f^/	.	4F\	-ki	.	(8f\L	ży-	.	(8dd\L	-ki	.	4ff\	-ki	.
8AJ 8F\	8ccJ 8f^/	.	.	.	.	8e-\J)	.	.	8cc\J)	.	.	.	.	.
!!LO:LB:g=original
=114	=114	=114	=114	=114	=114	=114	=114	=114	=114	=114	=114	=114	=114	=114
4B- 4BB-\	4b- 4f 4d/	.	4B-\	ży-	.	4d\	-wioł	.	(4b-\	ży-	.	4ff\	ży-	.
8BB-\L	8b-L 8f 8d^/	.	(8BB-/L	-wioł	.	4r	.	.	4f/)	.	.	(8b-\L	-wioł	.
8D\	8dd 8d^/	.	8D/J)	.	.	.	.	.	.	.	.	8dd\J)	.	.
8E-\	8cc 8c^/	.	8E-\	je-	.	4r	.	.	4g/	-wioł	.	8cc\	je-	.
8En\J	8b-J 8g 8c^/	.	8En\	-go	.	.	.	.	.	.	.	8b-\	-go	.
=115	=115	=115	=115	=115	=115	=115	=115	=115	=115	=115	=115	=115	=115	=115
4F\	4ff 4a 4f\	.	[2F\	moc	.	4c\	je-	.	4a/	je-	.	[2ff\	moc	.
8AL 8F\	8ccL 8f^/	.	.	.	.	(8A\L	-go	.	(8cc\L	-go	.	.	.	.
8c 8F\	8ee- 8f^/	.	.	.	.	8c\J)	.	.	8ee-\J)	.	.	.	.	.
8B- 8F\	8dd 8f^/	.	8F\]	.	.	8f\	moc	.	8dd\	moc	.	8ff\]	.	.
8AJ 8F\	8ccJ 8f^/	.	8F\	wy-	.	8e-\	wy-	.	8cc\	wy-	.	8ff\	wy-	.
=116	=116	=116	=116	=116	=116	=116	=116	=116	=116	=116	=116	=116	=116	=116
8B- 8BB-\	8b- 8f 8d/	.	4B-\	-ła-	.	4d\	-sła-	.	4b-\	-sła-	.	4b-\	-ła-	.
8d\L	8dddL 8dd\	f	.	.	.	.	.	.	.	.	.	.	.	.
8c\	8ccc 8cc\	.	4B-\	-wia	.	4d\	-wia	.	4b-\	-wia	.	4b-\	-wia	.
8B-\	8bb-J 8b-\	.	.	.	.	.	.	.	.	.	.	.	.	.
8A\	8aaL 8a\	.	4r	.	.	4r	.	.	4r	.	.	4r	.	.
8G\J	8ggJ 8g\	.	.	.	.	.	.	.	.	.	.	.	.	.
=117	=117	=117	=117	=117	=117	=117	=117	=117	=117	=117	=117	=117	=117	=117
8F\L	8ffL 8f/	.	2.r	.	.	2.r	.	.	2.r	.	.	2.r	.	.
8En\	8een 8en/	.	.	.	.	.	.	.	.	.	.	.	.	.
8E-X\	8ee-X 8e-X/	.	.	.	.	.	.	.	.	.	.	.	.	.
8D\	8dd 8d/	.	.	.	.	.	.	.	.	.	.	.	.	.
8C\	8cc 8c/	.	.	.	.	.	.	.	.	.	.	.	.	.
8BB-\J	8b-J 8B-/	.	.	.	.	.	.	.	.	.	.	.	.	.
=118	=118	=118	=118	=118	=118	=118	=118	=118	=118	=118	=118	=118	=118	=118
!	!	!	!	!	!LO:DY:a	!	!	!LO:DY:a	!	!	!LO:DY:a	!	!	!LO:DY:a
2E- 2EE-/	2gg 2ee-X 2b- 2g\	sf	2E-\	Je-	f	2G/	Je-	f	2g/	Je-	f	2g/	Je-	f
4En 4EEn/	4gg-X 4g-X\	.	4En^\	-go	.	4G-X^/	-go	.	4g-X^/	-go	.	4g-X^/	-go	.
=119	=119	=119	=119	=119	=119	=119	=119	=119	=119	=119	=119	=119	=119	=119
!	!	!	!	!	!LO:HP:a	!	!	!LO:HP:a	!	!	!LO:HP:a	!	!	!LO:HP:a
4F 4FF/	(4ff 4f\	>	4F\	moc	<	4F/	moc	<	4f/	moc	<	4f/	moc	<
4A 4F\	4ddd 4ff\	.	4F\	je-	[[	4B-\	je-	[[	4f/	je-	[[	4dd\	je-	[[
!	!	!	!	!	!LO:HP:a	!	!	!LO:HP:a	!	!	!LO:HP:a	!	!	!LO:HP:a
4A 4F\	4ccc 4ee-\)	]	4F\	-go	>]	4A\	-go	>]	4e-/	-go	>]	4cc\	-go	>]
!!LO:LB:g=original
=120	=120	=120	=120	=120	=120	=120	=120	=120	=120	=120	=120	=120	=120	=120
2B- 2F 2D 2BB-\	8bb-\	.	2B-\	moc	.	2B-\	moc	.	2d/	moc	.	2b-\	moc	.
.	16cc\LL	<	.	.	.	.	.	.	.	.	.	.	.	.
.	16ccc\JJ	.	.	.	.	.	.	.	.	.	.	.	.	.
.	16dd\LL	.	.	.	.	.	.	.	.	.	.	.	.	.
.	16ddd\	.	.	.	.	.	.	.	.	.	.	.	.	.
.	16ee-\	.	.	.	.	.	.	.	.	.	.	.	.	.
.	16eee-\JJ	.	.	.	.	.	.	.	.	.	.	.	.	.
8AL 8F 8E- 8BB-\	16een\LL	.	4F\	wy-	.	4c\	wy-	.	4a/	wy-	.	4ff\	wy-	.
.	16eeen\	.	.	.	.	.	.	.	.	.	.	.	.	.
8AJ 8F 8E- 8BB-\	16ff\	[	.	.	.	.	.	.	.	.	.	.	.	.
.	16fff\JJ	.	.	.	.	.	.	.	.	.	.	.	.	.
=121	=121	=121	=121	=121	=121	=121	=121	=121	=121	=121	=121	=121	=121	=121
2B- 2F 2D 2BB-\	16gg\LL	.	2B-\	-sła-	.	2d\	-sła-	.	2b-/	-sła-	.	2b-\	-sła-	.
.	16ggg\	.	.	.	.	.	.	.	.	.	.	.	.	.
.	16ff\	.	.	.	.	.	.	.	.	.	.	.	.	.
.	16fff\JJ	.	.	.	.	.	.	.	.	.	.	.	.	.
.	16ee-X\LL	.	.	.	.	.	.	.	.	.	.	.	.	.
.	16eee-X\	.	.	.	.	.	.	.	.	.	.	.	.	.
.	16dd\	.	.	.	.	.	.	.	.	.	.	.	.	.
.	16ddd\JJ	.	.	.	.	.	.	.	.	.	.	.	.	.
8AL 8F 8E- 8BB-\	16cc\LL	.	8F\	-wia	.	8e-\	-wia	.	8a/	-wia	.	8ff\	-wia	.
.	16ccc\	.	.	.	.	.	.	.	.	.	.	.	.	.
8AJ 8F 8E- 8BB-\	16a\	.	8F\	wy-	.	8c\	wy-	.	8a/	wy-	.	8ff\	wy-	.
.	16aa\JJ	.	.	.	.	.	.	.	.	.	.	.	.	.
=122	=122	=122	=122	=122	=122	=122	=122	=122	=122	=122	=122	=122	=122	=122
2B- 2F 2D 2BB-\	16b-\LL	.	(2B-\	-sła-	.	(2d\	-sła-	.	(2b-/	-sła-	.	(2b-\	-sła-	.
.	16bb-\	.	.	.	.	.	.	.	.	.	.	.	.	.
.	16cc\	.	.	.	.	.	.	.	.	.	.	.	.	.
.	16ccc\JJ	.	.	.	.	.	.	.	.	.	.	.	.	.
.	16dd\LL	.	.	.	.	.	.	.	.	.	.	.	.	.
.	16ddd\	.	.	.	.	.	.	.	.	.	.	.	.	.
.	16ee-\	.	.	.	.	.	.	.	.	.	.	.	.	.
.	16eee-\JJ	.	.	.	.	.	.	.	.	.	.	.	.	.
8AL 8F 8E- 8BB-\	16een\LL	.	4F\	.	.	4e-\	.	.	4b-/	.	.	4ff\	.	.
.	16eeen\	.	.	.	.	.	.	.	.	.	.	.	.	.
8AJ 8F 8E- 8BB-\	16ff\	.	.	.	.	.	.	.	.	.	.	.	.	.
.	16fff\JJ	.	.	.	.	.	.	.	.	.	.	.	.	.
=123	=123	=123	=123	=123	=123	=123	=123	=123	=123	=123	=123	=123	=123	=123
!	!	!	!	!	!	!	!	!LO:DY:a	!	!	!LO:DY:a	!	!	!LO:DY:a
4A 4F 4E- 4BB-\	16aa\LL	sf	2.F\)	.	.	4c\	.	f	2.a/)	.	f	2.ff\)	.	f
.	16aaa\	.	.	.	.	.	.	.	.	.	.	.	.	.
.	16gg\	.	.	.	.	.	.	.	.	.	.	.	.	.
.	16ggg\JJ	.	.	.	.	.	.	.	.	.	.	.	.	.
4A 4F 4E- 4BB-\	16ff\LL	.	.	.	.	4e-\	.	.	.	.	.	.	.	.
.	16fff\	.	.	.	.	.	.	.	.	.	.	.	.	.
.	16ee-X\	.	.	.	.	.	.	.	.	.	.	.	.	.
.	16eee-X\JJ	.	.	.	.	.	.	.	.	.	.	.	.	.
4A 4F 4E- 4BB-\	16dd\LL	.	.	.	.	4c\)	.	.	.	.	.	.	.	.
.	16ddd\	.	.	.	.	.	.	.	.	.	.	.	.	.
.	16cc\	.	.	.	.	.	.	.	.	.	.	.	.	.
.	16ccc\JJ	.	.	.	.	.	.	.	.	.	.	.	.	.
=124	=124	=124	=124	=124	=124	=124	=124	=124	=124	=124	=124	=124	=124	=124
4B- 4F 4D 4BB-\	4bb- 4b-\	.	2B-\	-wia!	.	2d 2B-\	-wia!	.	2b-\	-wia!	.	2b-\	-wia!	.
8BB-L 8BBB-/	8b-L 8f 8d^/	.	.	.	.	.	.	.	.	.	.	.	.	.
8BB- 8BBB-/	8dd 8f 8d^/	.	.	.	.	.	.	.	.	.	.	.	.	.
8BB- 8BBB-/	8cc 8f 8d^/	.	4r	.	.	4r	.	.	4r	.	.	4r	.	.
8BB-J 8BBB-/	8b-J 8f 8d^/	.	.	.	.	.	.	.	.	.	.	.	.	.
=125	=125	=125	=125	=125	=125	=125	=125	=125	=125	=125	=125	=125	=125	=125
2BB- 2BBB-/	2b- 2f 2d^/	sf	2.r	.	.	2.r	.	.	2.r	.	.	2.r	.	.
4r	4r	.	.	.	.	.	.	.	.	.	.	.	.	.
==	==	==	==	==	==	==	==	==	==	==	==	==	==	==
*-	*-	*-	*-	*-	*-	*-	*-	*-	*-	*-	*-	*-	*-	*-
!!title: @{OTL};
!!!RDF**kern: > = above
!!!RDF**kern: < = below
!!!RDF**dynam: > = "decres.", fontstyle= "bold-italic"
!!!RDF**dynam: < = "cres", fontstyle= "bold-italic"
!!!RDF**kern: | = vertical stroke
!!!RDF**kern: N = linked
!!!RDF**kern: i = editorial accidental
!!!RDF**kern: l = terminal long
!!!AIN: 1 alto 2 empty 1 soprn 1 tenor
!!!ENC: Anastazja Marusiak
!!!END: 2022-02-24
!!!EED: Wojciech Jakubiak-Danek
!!!EST: 2022-03-25
!!!URL-scan: https://polona.pl/item/swiety-wojciech-meczennik-oratorjo-w-trzech-czesciach-dzielo-66-spiew-z-fortepianem,MTkzODI1Mzc/242/#item
!!!ONB-nifc: UWAGA: oratorium zawiera w źródle 28 numerów podzielonych na 30 plików (rozdzielenie w No. 6 - osobno Recitativo oraz Aria matki i No. 10 - osobno Recitativo, arja i chór oraz Sen). Polecam widok miniatur na Polonie. Uwaga co do obsady: prosimy umieszczać tylko partie występujące w danym numerze (nie całą obsadę oratorium)
